(1001)
(Bearbeiten)
(  Hersteller: Autodesk)
(  model: Generic 3-axis)
(  description: This machine has XY axis on the Table and Z axis on the Head)
(T1 D=3 CR=0 - ZMIN=-10 - Schaftfrser)
G90 G94
G17
G21
G28 G91 Z0
G90

(2D-Tasche2)
T1
S5000 M3
G17 G90 G94
G54
G0 X13.168 Y-4.263
Z15
G0 Z5
G1 Z2.8 F333.3
X13.189 Y-4.295 Z2.653
X13.244 Y-4.386 Z2.543
X13.307 Y-4.517 Z2.5
G2 X10.683 Y-5.628 Z2.35 I-1.312 J-0.555
X13.307 Y-4.517 Z2.2 I1.312 J0.555
X10.683 Y-5.628 Z2.05 I-1.312 J-0.555
X13.307 Y-4.517 Z1.9 I1.312 J0.555
X10.683 Y-5.628 Z1.75 I-1.312 J-0.555
X13.307 Y-4.517 Z1.6 I1.312 J0.555
X10.683 Y-5.628 Z1.45 I-1.312 J-0.555
X13.307 Y-4.517 Z1.3 I1.312 J0.555
X10.683 Y-5.628 Z1.15 I-1.312 J-0.555
X13.307 Y-4.517 Z1 I1.312 J0.555
X10.683 Y-5.628 Z0.85 I-1.312 J-0.555
X13.307 Y-4.517 Z0.7 I1.312 J0.555
X10.683 Y-5.628 Z0.55 I-1.312 J-0.555
X13.307 Y-4.517 Z0.4 I1.312 J0.555
X10.683 Y-5.628 Z0.25 I-1.312 J-0.555
X13.307 Y-4.517 Z0.1 I1.312 J0.555
X10.683 Y-5.628 Z-0.05 I-1.312 J-0.555
X13.307 Y-4.517 Z-0.2 I1.312 J0.555
X11.995 Y-6.497 Z-0.294 I-1.312 J-0.555
G1 X-19.145 F1000
G2 X-19.464 Y-6.178 I0 J0.319
G1 Y-5.827
G2 X-19.145 Y-5.507 I0.319 J0
G1 X12.33
G2 X12.56 Y-5.807 I0 J-0.238
G1 X12.465 Y-6.16
G2 X12.026 Y-6.497 I-0.439 J0.118
G1 X11.995
G3 X10.72 Y-7.347 I0 J-1.381
G2 X9.445 Y-8.197 I-1.275 J0.531
G1 X-20.845
G2 X-21.164 Y-7.878 I0 J0.319
G1 Y-4.127
G2 X-20.845 Y-3.807 I0.319 J0
G1 X14.546
G2 X14.775 Y-4.107 I0 J-0.238
G1 X13.77 Y-7.86
G2 X13.33 Y-8.197 I-0.439 J0.118
G1 X9.445
G3 X8.17 Y-9.047 I0 J-1.381
G2 X6.895 Y-9.897 I-1.275 J0.531
G1 X-22.545
G2 X-22.864 Y-9.578 I0 J0.319
G1 Y-2.427
G2 X-22.545 Y-2.107 I0.319 J0
G1 X16.761
G2 X16.991 Y-2.407 I0 J-0.238
G1 X15.074 Y-9.56
G2 X14.635 Y-9.897 I-0.439 J0.118
G1 X6.895
G3 X5.62 Y-10.747 I0 J-1.381
G2 X4.345 Y-11.597 I-1.275 J0.531
G1 X-24.245
G2 X-24.564 Y-11.278 I0 J0.319
G1 Y-0.727
G2 X-24.245 Y-0.407 I0.319 J0
G1 X18.977
G2 X19.206 Y-0.707 I0 J-0.238
G1 X16.378 Y-11.26
G2 X15.939 Y-11.597 I-0.439 J0.118
G1 X4.345
G3 X3.07 Y-12.447 I0 J-1.381
G2 X1.795 Y-13.297 I-1.275 J0.531
G1 X-25.945
G2 X-26.264 Y-12.978 I0 J0.319
G1 Y0.973
G2 X-25.945 Y1.293 I0.319 J0
G1 X21.192
G2 X21.422 Y0.993 I0 J-0.238
G1 X17.683 Y-12.96
G2 X17.244 Y-13.297 I-0.439 J0.118
G1 X1.795
G3 X0.52 Y-14.147 I0 J-1.381
G2 X-0.755 Y-14.997 I-1.275 J0.531
G1 X-27.645
G2 X-27.964 Y-14.678 I0 J0.319
G1 Y2.673
G2 X-27.645 Y2.993 I0.319 J0
G1 X23.408
G2 X23.637 Y2.693 I0 J-0.238
G1 X18.987 Y-14.66
G2 X18.548 Y-14.997 I-0.439 J0.118
G1 X-0.755
G3 X-2.01 Y-15.835 I0 J-1.359
G2 X-3.266 Y-16.673 I-1.257 J0.523
G1 X-29.345 Y-16.697
G2 X-29.664 Y-16.378 I0 J0.319
G1 Y4.373
G2 X-29.345 Y4.693 I0.319 J0
G1 X25.623
G2 X25.853 Y4.393 I0 J-0.238
G1 X20.296 Y-16.171
G2 X19.668 Y-16.652 I-0.628 J0.168
G1 X-3.266 Y-16.673
G3 X-4.539 Y-17.524 I0.001 J-1.381
G2 X-5.813 Y-18.375 I-1.275 J0.53
G1 X-31.045 Y-18.397
G2 X-31.364 Y-18.078 I0 J0.319
G1 Y6.073
G2 X-31.045 Y6.393 I0.319 J0
G1 X27.838
G2 X28.068 Y6.093 I0 J-0.238
G1 X21.938 Y-16.611
G2 X19.668 Y-18.352 I-2.27 J0.608
G1 X-5.813 Y-18.375
G3 X-7.087 Y-19.226 I0.001 J-1.381
G2 X-8.36 Y-20.076 I-1.275 J0.53
G1 X-32.745 Y-20.097
G2 X-33.064 Y-19.778 I0 J0.319
G1 Y7.773
G2 X-32.745 Y8.093 I0.319 J0
G1 X30.054
G2 X30.284 Y7.793 I0 J-0.238
G1 X23.58 Y-17.051
G2 X19.668 Y-20.052 I-3.912 J1.048
G1 X-8.36 Y-20.076
G3 X-9.634 Y-20.927 I0.001 J-1.381
G2 X-10.908 Y-21.778 I-1.275 J0.53
G1 X-34.445 Y-21.797
G2 X-34.764 Y-21.478 I0 J0.319
G1 Y9.473
G2 X-34.445 Y9.793 I0.319 J0
G1 X32.269
G2 X32.499 Y9.493 I0 J-0.238
G1 X25.222 Y-17.491
G2 X19.668 Y-21.752 I-5.554 J1.488
G1 X-10.908 Y-21.778
G3 X-12.182 Y-22.628 I0.001 J-1.381
G2 X-13.455 Y-23.479 I-1.275 J0.53
G1 X-36.145 Y-23.497
G2 X-36.464 Y-23.178 I0 J0.319
G1 X-36.419 Y9.998
G2 X-34.969 Y11.448 I1.45 J0
G1 X34.485 Y11.493
G2 X34.715 Y11.193 I0 J-0.238
G1 X26.864 Y-17.931
G2 X19.668 Y-23.452 I-7.196 J1.928
G1 X-13.455 Y-23.479
G3 X-14.729 Y-24.33 I0.001 J-1.381
G2 X-16.003 Y-25.18 I-1.275 J0.53
G1 X-37.845 Y-25.197
G2 X-38.164 Y-24.878 I0 J0.319
G1 X-38.119 Y9.998
G2 X-34.969 Y13.148 I3.15 J0
G1 X36.7 Y13.193
G2 X36.93 Y12.893 I0 J-0.238
G1 X28.506 Y-18.371
G2 X19.668 Y-25.152 I-8.838 J2.368
G1 X-16.003 Y-25.18
G3 X-17.276 Y-26.031 I0.001 J-1.381
G2 X-18.55 Y-26.881 I-1.275 J0.53
G1 X-39.545 Y-26.897
G2 X-39.864 Y-26.578 I0 J0.319
G1 X-39.819 Y9.998
G2 X-34.969 Y14.848 I4.85 J0
G1 X38.916 Y14.893
G2 X39.146 Y14.593 I0 J-0.238
G1 X30.149 Y-18.811
G2 X19.668 Y-26.852 I-10.48 J2.808
G1 X-18.55 Y-26.881
G3 X-19.824 Y-27.732 I0.001 J-1.381
G2 X-21.098 Y-28.583 I-1.275 J0.53
G1 X-41.245 Y-28.597
G2 X-41.564 Y-28.278 I0 J0.319
G1 X-41.519 Y9.998
G2 X-34.969 Y16.548 I6.55 J0
G1 X41.131 Y16.593
G2 X41.361 Y16.293 I0 J-0.238
G1 X31.791 Y-19.251
G2 X19.668 Y-28.552 I-12.122 J3.248
G1 X-21.098 Y-28.583
G3 X-22.349 Y-29.417 I0.001 J-1.357
G2 X-23.601 Y-30.252 I-1.252 J0.521
G1 X-41.969
G2 X-43.219 Y-29.002 I0 J1.25
G1 Y9.998
G2 X-34.969 Y18.248 I8.25 J0
G1 X41.969
G2 X43.176 Y16.674 I0 J-1.25
G1 X33.433 Y-19.691
G2 X19.668 Y-30.252 I-13.764 J3.688
G1 X-23.601
G3 X-24.876 Y-31.102 I0 J-1.381
G2 X-26.151 Y-31.952 I-1.275 J0.531
G1 X-41.969
G2 X-44.919 Y-29.002 I0 J2.95
G1 Y9.998
G2 X-34.969 Y19.948 I9.95 J0
G1 X41.969
G2 X44.819 Y16.234 I0 J-2.95
G1 X35.075 Y-20.131
G2 X19.668 Y-31.952 I-15.407 J4.128
G1 X-26.151
G3 X-27.426 Y-32.802 I0 J-1.381
G2 X-28.701 Y-33.652 I-1.275 J0.531
G1 X-41.969
G2 X-46.619 Y-29.002 I0 J4.65
G1 Y9.998
G2 X-34.969 Y21.648 I11.65 J0
G1 X41.969
G2 X46.461 Y15.794 I0 J-4.65
G1 X36.717 Y-20.571
G2 X19.668 Y-33.652 I-17.049 J4.568
G1 X-28.701
G3 X-29.976 Y-34.502 I0 J-1.381
G2 X-31.251 Y-35.352 I-1.275 J0.531
G1 X-41.969
G2 X-48.319 Y-29.002 I0 J6.35
G1 Y9.998
G2 X-34.969 Y23.348 I13.35 J0
G1 X41.969
G2 X48.103 Y15.354 I0 J-6.35
G1 X38.359 Y-21.011
G2 X19.668 Y-35.352 I-18.691 J5.008
G1 X-31.251
G3 X-32.526 Y-36.202 I0 J-1.381
G2 X-33.801 Y-37.052 I-1.275 J0.531
G1 X-41.969
G2 X-50.019 Y-29.002 I0 J8.05
G1 Y9.998
G2 X-34.969 Y25.048 I15.05 J0
G1 X41.969
G2 X49.745 Y14.914 I0 J-8.05
G1 X40.001 Y-21.451
G2 X19.668 Y-37.052 I-20.333 J5.448
G1 X-33.801
G3 X-35.076 Y-37.902 I0 J-1.381
G2 X-36.351 Y-38.752 I-1.275 J0.531
G1 X-41.969
G2 X-51.719 Y-29.002 I0 J9.75
G1 Y9.998
G2 X-34.969 Y26.748 I16.75 J0
G1 X41.969
G2 X51.387 Y14.474 I0 J-9.75
G1 X41.643 Y-21.891
G2 X19.668 Y-38.752 I-21.975 J5.888
G1 X-36.351
G3 X-37.664 Y-39.627 I0 J-1.422
G2 X-38.976 Y-40.502 I-1.313 J0.547
G1 X-41.969
G2 X-53.469 Y-29.002 I0 J11.5
G1 Y9.998
G2 X-34.969 Y28.498 I18.5 J0
G1 X41.969
G2 X53.077 Y14.021 I0 J-11.5
G1 X43.333 Y-22.343
G2 X19.668 Y-40.502 I-23.665 J6.341
G1 X-38.976
X-39.033 Y-40.497 Z-0.283 F500
X-39.088 Y-40.481 Z-0.271
X-39.132 Y-40.459 Z-0.239
X-39.171 Y-40.43 Z-0.206
X-39.216 Y-40.383 Z-0.109
X-39.229 Y-40.364 Z0.006
G0 Z5
X13.168 Y-4.263
G1 Z2.506 F333.3
X13.189 Y-4.295 Z2.359
X13.244 Y-4.386 Z2.249
X13.307 Y-4.517 Z2.206
G2 X10.683 Y-5.628 Z2.056 I-1.312 J-0.555
X13.307 Y-4.517 Z1.906 I1.312 J0.555
X10.683 Y-5.628 Z1.756 I-1.312 J-0.555
X13.307 Y-4.517 Z1.606 I1.312 J0.555
X10.683 Y-5.628 Z1.456 I-1.312 J-0.555
X13.307 Y-4.517 Z1.306 I1.312 J0.555
X10.683 Y-5.628 Z1.156 I-1.312 J-0.555
X13.307 Y-4.517 Z1.006 I1.312 J0.555
X10.683 Y-5.628 Z0.856 I-1.312 J-0.555
X13.307 Y-4.517 Z0.706 I1.312 J0.555
X10.683 Y-5.628 Z0.556 I-1.312 J-0.555
X13.307 Y-4.517 Z0.406 I1.312 J0.555
X10.683 Y-5.628 Z0.256 I-1.312 J-0.555
X13.307 Y-4.517 Z0.106 I1.312 J0.555
X10.683 Y-5.628 Z-0.044 I-1.312 J-0.555
X13.307 Y-4.517 Z-0.194 I1.312 J0.555
X10.683 Y-5.628 Z-0.344 I-1.312 J-0.555
X13.307 Y-4.517 Z-0.494 I1.312 J0.555
X11.995 Y-6.497 Z-0.588 I-1.312 J-0.555
G1 X-19.145 F1000
G2 X-19.464 Y-6.178 I0 J0.319
G1 Y-5.827
G2 X-19.145 Y-5.507 I0.319 J0
G1 X12.33
G2 X12.56 Y-5.807 I0 J-0.238
G1 X12.465 Y-6.16
G2 X12.026 Y-6.497 I-0.439 J0.118
G1 X11.995
G3 X10.72 Y-7.347 I0 J-1.381
G2 X9.445 Y-8.197 I-1.275 J0.531
G1 X-20.845
G2 X-21.164 Y-7.878 I0 J0.319
G1 Y-4.127
G2 X-20.845 Y-3.807 I0.319 J0
G1 X14.546
G2 X14.775 Y-4.107 I0 J-0.238
G1 X13.77 Y-7.86
G2 X13.33 Y-8.197 I-0.439 J0.118
G1 X9.445
G3 X8.17 Y-9.047 I0 J-1.381
G2 X6.895 Y-9.897 I-1.275 J0.531
G1 X-22.545
G2 X-22.864 Y-9.578 I0 J0.319
G1 Y-2.427
G2 X-22.545 Y-2.107 I0.319 J0
G1 X16.761
G2 X16.991 Y-2.407 I0 J-0.238
G1 X15.074 Y-9.56
G2 X14.635 Y-9.897 I-0.439 J0.118
G1 X6.895
G3 X5.62 Y-10.747 I0 J-1.381
G2 X4.345 Y-11.597 I-1.275 J0.531
G1 X-24.245
G2 X-24.564 Y-11.278 I0 J0.319
G1 Y-0.727
G2 X-24.245 Y-0.407 I0.319 J0
G1 X18.977
G2 X19.206 Y-0.707 I0 J-0.238
G1 X16.378 Y-11.26
G2 X15.939 Y-11.597 I-0.439 J0.118
G1 X4.345
G3 X3.07 Y-12.447 I0 J-1.381
G2 X1.795 Y-13.297 I-1.275 J0.531
G1 X-25.945
G2 X-26.264 Y-12.978 I0 J0.319
G1 Y0.973
G2 X-25.945 Y1.293 I0.319 J0
G1 X21.192
G2 X21.422 Y0.993 I0 J-0.238
G1 X17.683 Y-12.96
G2 X17.244 Y-13.297 I-0.439 J0.118
G1 X1.795
G3 X0.52 Y-14.147 I0 J-1.381
G2 X-0.755 Y-14.997 I-1.275 J0.531
G1 X-27.645
G2 X-27.964 Y-14.678 I0 J0.319
G1 Y2.673
G2 X-27.645 Y2.993 I0.319 J0
G1 X23.408
G2 X23.637 Y2.693 I0 J-0.238
G1 X18.987 Y-14.66
G2 X18.548 Y-14.997 I-0.439 J0.118
G1 X-0.755
G3 X-2.01 Y-15.835 I0 J-1.359
G2 X-3.266 Y-16.673 I-1.257 J0.523
G1 X-29.345 Y-16.697
G2 X-29.664 Y-16.378 I0 J0.319
G1 Y4.373
G2 X-29.345 Y4.693 I0.319 J0
G1 X25.623
G2 X25.853 Y4.393 I0 J-0.238
G1 X20.296 Y-16.171
G2 X19.668 Y-16.652 I-0.628 J0.168
G1 X-3.266 Y-16.673
G3 X-4.539 Y-17.524 I0.001 J-1.381
G2 X-5.813 Y-18.375 I-1.275 J0.53
G1 X-31.045 Y-18.397
G2 X-31.364 Y-18.078 I0 J0.319
G1 Y6.073
G2 X-31.045 Y6.393 I0.319 J0
G1 X27.838
G2 X28.068 Y6.093 I0 J-0.238
G1 X21.938 Y-16.611
G2 X19.668 Y-18.352 I-2.27 J0.608
G1 X-5.813 Y-18.375
G3 X-7.087 Y-19.226 I0.001 J-1.381
G2 X-8.36 Y-20.076 I-1.275 J0.53
G1 X-32.745 Y-20.097
G2 X-33.064 Y-19.778 I0 J0.319
G1 Y7.773
G2 X-32.745 Y8.093 I0.319 J0
G1 X30.054
G2 X30.284 Y7.793 I0 J-0.238
G1 X23.58 Y-17.051
G2 X19.668 Y-20.052 I-3.912 J1.048
G1 X-8.36 Y-20.076
G3 X-9.634 Y-20.927 I0.001 J-1.381
G2 X-10.908 Y-21.778 I-1.275 J0.53
G1 X-34.445 Y-21.797
G2 X-34.764 Y-21.478 I0 J0.319
G1 Y9.473
G2 X-34.445 Y9.793 I0.319 J0
G1 X32.269
G2 X32.499 Y9.493 I0 J-0.238
G1 X25.222 Y-17.491
G2 X19.668 Y-21.752 I-5.554 J1.488
G1 X-10.908 Y-21.778
G3 X-12.182 Y-22.628 I0.001 J-1.381
G2 X-13.455 Y-23.479 I-1.275 J0.53
G1 X-36.145 Y-23.497
G2 X-36.464 Y-23.178 I0 J0.319
G1 X-36.419 Y9.998
G2 X-34.969 Y11.448 I1.45 J0
G1 X34.485 Y11.493
G2 X34.715 Y11.193 I0 J-0.238
G1 X26.864 Y-17.931
G2 X19.668 Y-23.452 I-7.196 J1.928
G1 X-13.455 Y-23.479
G3 X-14.729 Y-24.33 I0.001 J-1.381
G2 X-16.003 Y-25.18 I-1.275 J0.53
G1 X-37.845 Y-25.197
G2 X-38.164 Y-24.878 I0 J0.319
G1 X-38.119 Y9.998
G2 X-34.969 Y13.148 I3.15 J0
G1 X36.7 Y13.193
G2 X36.93 Y12.893 I0 J-0.238
G1 X28.506 Y-18.371
G2 X19.668 Y-25.152 I-8.838 J2.368
G1 X-16.003 Y-25.18
G3 X-17.276 Y-26.031 I0.001 J-1.381
G2 X-18.55 Y-26.881 I-1.275 J0.53
G1 X-39.545 Y-26.897
G2 X-39.864 Y-26.578 I0 J0.319
G1 X-39.819 Y9.998
G2 X-34.969 Y14.848 I4.85 J0
G1 X38.916 Y14.893
G2 X39.146 Y14.593 I0 J-0.238
G1 X30.149 Y-18.811
G2 X19.668 Y-26.852 I-10.48 J2.808
G1 X-18.55 Y-26.881
G3 X-19.824 Y-27.732 I0.001 J-1.381
G2 X-21.098 Y-28.583 I-1.275 J0.53
G1 X-41.245 Y-28.597
G2 X-41.564 Y-28.278 I0 J0.319
G1 X-41.519 Y9.998
G2 X-34.969 Y16.548 I6.55 J0
G1 X41.131 Y16.593
G2 X41.361 Y16.293 I0 J-0.238
G1 X31.791 Y-19.251
G2 X19.668 Y-28.552 I-12.122 J3.248
G1 X-21.098 Y-28.583
G3 X-22.349 Y-29.417 I0.001 J-1.357
G2 X-23.601 Y-30.252 I-1.252 J0.521
G1 X-41.969
G2 X-43.219 Y-29.002 I0 J1.25
G1 Y9.998
G2 X-34.969 Y18.248 I8.25 J0
G1 X41.969
G2 X43.176 Y16.674 I0 J-1.25
G1 X33.433 Y-19.691
G2 X19.668 Y-30.252 I-13.764 J3.688
G1 X-23.601
G3 X-24.876 Y-31.102 I0 J-1.381
G2 X-26.151 Y-31.952 I-1.275 J0.531
G1 X-41.969
G2 X-44.919 Y-29.002 I0 J2.95
G1 Y9.998
G2 X-34.969 Y19.948 I9.95 J0
G1 X41.969
G2 X44.819 Y16.234 I0 J-2.95
G1 X35.075 Y-20.131
G2 X19.668 Y-31.952 I-15.407 J4.128
G1 X-26.151
G3 X-27.426 Y-32.802 I0 J-1.381
G2 X-28.701 Y-33.652 I-1.275 J0.531
G1 X-41.969
G2 X-46.619 Y-29.002 I0 J4.65
G1 Y9.998
G2 X-34.969 Y21.648 I11.65 J0
G1 X41.969
G2 X46.461 Y15.794 I0 J-4.65
G1 X36.717 Y-20.571
G2 X19.668 Y-33.652 I-17.049 J4.568
G1 X-28.701
G3 X-29.976 Y-34.502 I0 J-1.381
G2 X-31.251 Y-35.352 I-1.275 J0.531
G1 X-41.969
G2 X-48.319 Y-29.002 I0 J6.35
G1 Y9.998
G2 X-34.969 Y23.348 I13.35 J0
G1 X41.969
G2 X48.103 Y15.354 I0 J-6.35
G1 X38.359 Y-21.011
G2 X19.668 Y-35.352 I-18.691 J5.008
G1 X-31.251
G3 X-32.526 Y-36.202 I0 J-1.381
G2 X-33.801 Y-37.052 I-1.275 J0.531
G1 X-41.969
G2 X-50.019 Y-29.002 I0 J8.05
G1 Y9.998
G2 X-34.969 Y25.048 I15.05 J0
G1 X41.969
G2 X49.745 Y14.914 I0 J-8.05
G1 X40.001 Y-21.451
G2 X19.668 Y-37.052 I-20.333 J5.448
G1 X-33.801
G3 X-35.076 Y-37.902 I0 J-1.381
G2 X-36.351 Y-38.752 I-1.275 J0.531
G1 X-41.969
G2 X-51.719 Y-29.002 I0 J9.75
G1 Y9.998
G2 X-34.969 Y26.748 I16.75 J0
G1 X41.969
G2 X51.387 Y14.474 I0 J-9.75
G1 X41.643 Y-21.891
G2 X19.668 Y-38.752 I-21.975 J5.888
G1 X-36.351
G3 X-37.664 Y-39.627 I0 J-1.422
G2 X-38.976 Y-40.502 I-1.313 J0.547
G1 X-41.969
G2 X-53.469 Y-29.002 I0 J11.5
G1 Y9.998
G2 X-34.969 Y28.498 I18.5 J0
G1 X41.969
G2 X53.077 Y14.021 I0 J-11.5
G1 X43.333 Y-22.343
G2 X19.668 Y-40.502 I-23.665 J6.341
G1 X-38.976
X-39.033 Y-40.497 Z-0.577 F500
X-39.088 Y-40.481 Z-0.565
X-39.132 Y-40.459 Z-0.533
X-39.171 Y-40.43 Z-0.5
X-39.216 Y-40.383 Z-0.403
X-39.229 Y-40.364 Z-0.288
G0 Z5
X13.168 Y-4.263
G1 Z2.212 F333.3
X13.189 Y-4.295 Z2.065
X13.244 Y-4.386 Z1.955
X13.307 Y-4.517 Z1.912
G2 X10.683 Y-5.628 Z1.762 I-1.312 J-0.555
X13.307 Y-4.517 Z1.612 I1.312 J0.555
X10.683 Y-5.628 Z1.462 I-1.312 J-0.555
X13.307 Y-4.517 Z1.312 I1.312 J0.555
X10.683 Y-5.628 Z1.162 I-1.312 J-0.555
X13.307 Y-4.517 Z1.012 I1.312 J0.555
X10.683 Y-5.628 Z0.862 I-1.312 J-0.555
X13.307 Y-4.517 Z0.712 I1.312 J0.555
X10.683 Y-5.628 Z0.562 I-1.312 J-0.555
X13.307 Y-4.517 Z0.412 I1.312 J0.555
X10.683 Y-5.628 Z0.262 I-1.312 J-0.555
X13.307 Y-4.517 Z0.112 I1.312 J0.555
X10.683 Y-5.628 Z-0.038 I-1.312 J-0.555
X13.307 Y-4.517 Z-0.188 I1.312 J0.555
X10.683 Y-5.628 Z-0.338 I-1.312 J-0.555
X13.307 Y-4.517 Z-0.488 I1.312 J0.555
X10.683 Y-5.628 Z-0.638 I-1.312 J-0.555
X13.307 Y-4.517 Z-0.788 I1.312 J0.555
X11.995 Y-6.497 Z-0.882 I-1.312 J-0.555
G1 X-19.145 F1000
G2 X-19.464 Y-6.178 I0 J0.319
G1 Y-5.827
G2 X-19.145 Y-5.507 I0.319 J0
G1 X12.33
G2 X12.56 Y-5.807 I0 J-0.238
G1 X12.465 Y-6.16
G2 X12.026 Y-6.497 I-0.439 J0.118
G1 X11.995
G3 X10.72 Y-7.347 I0 J-1.381
G2 X9.445 Y-8.197 I-1.275 J0.531
G1 X-20.845
G2 X-21.164 Y-7.878 I0 J0.319
G1 Y-4.127
G2 X-20.845 Y-3.807 I0.319 J0
G1 X14.546
G2 X14.775 Y-4.107 I0 J-0.238
G1 X13.77 Y-7.86
G2 X13.33 Y-8.197 I-0.439 J0.118
G1 X9.445
G3 X8.17 Y-9.047 I0 J-1.381
G2 X6.895 Y-9.897 I-1.275 J0.531
G1 X-22.545
G2 X-22.864 Y-9.578 I0 J0.319
G1 Y-2.427
G2 X-22.545 Y-2.107 I0.319 J0
G1 X16.761
G2 X16.991 Y-2.407 I0 J-0.238
G1 X15.074 Y-9.56
G2 X14.635 Y-9.897 I-0.439 J0.118
G1 X6.895
G3 X5.62 Y-10.747 I0 J-1.381
G2 X4.345 Y-11.597 I-1.275 J0.531
G1 X-24.245
G2 X-24.564 Y-11.278 I0 J0.319
G1 Y-0.727
G2 X-24.245 Y-0.407 I0.319 J0
G1 X18.977
G2 X19.206 Y-0.707 I0 J-0.238
G1 X16.378 Y-11.26
G2 X15.939 Y-11.597 I-0.439 J0.118
G1 X4.345
G3 X3.07 Y-12.447 I0 J-1.381
G2 X1.795 Y-13.297 I-1.275 J0.531
G1 X-25.945
G2 X-26.264 Y-12.978 I0 J0.319
G1 Y0.973
G2 X-25.945 Y1.293 I0.319 J0
G1 X21.192
G2 X21.422 Y0.993 I0 J-0.238
G1 X17.683 Y-12.96
G2 X17.244 Y-13.297 I-0.439 J0.118
G1 X1.795
G3 X0.52 Y-14.147 I0 J-1.381
G2 X-0.755 Y-14.997 I-1.275 J0.531
G1 X-27.645
G2 X-27.964 Y-14.678 I0 J0.319
G1 Y2.673
G2 X-27.645 Y2.993 I0.319 J0
G1 X23.408
G2 X23.637 Y2.693 I0 J-0.238
G1 X18.987 Y-14.66
G2 X18.548 Y-14.997 I-0.439 J0.118
G1 X-0.755
G3 X-2.01 Y-15.835 I0 J-1.359
G2 X-3.266 Y-16.673 I-1.257 J0.523
G1 X-29.345 Y-16.697
G2 X-29.664 Y-16.378 I0 J0.319
G1 Y4.373
G2 X-29.345 Y4.693 I0.319 J0
G1 X25.623
G2 X25.853 Y4.393 I0 J-0.238
G1 X20.296 Y-16.171
G2 X19.668 Y-16.652 I-0.628 J0.168
G1 X-3.266 Y-16.673
G3 X-4.539 Y-17.524 I0.001 J-1.381
G2 X-5.813 Y-18.375 I-1.275 J0.53
G1 X-31.045 Y-18.397
G2 X-31.364 Y-18.078 I0 J0.319
G1 Y6.073
G2 X-31.045 Y6.393 I0.319 J0
G1 X27.838
G2 X28.068 Y6.093 I0 J-0.238
G1 X21.938 Y-16.611
G2 X19.668 Y-18.352 I-2.27 J0.608
G1 X-5.813 Y-18.375
G3 X-7.087 Y-19.226 I0.001 J-1.381
G2 X-8.36 Y-20.076 I-1.275 J0.53
G1 X-32.745 Y-20.097
G2 X-33.064 Y-19.778 I0 J0.319
G1 Y7.773
G2 X-32.745 Y8.093 I0.319 J0
G1 X30.054
G2 X30.284 Y7.793 I0 J-0.238
G1 X23.58 Y-17.051
G2 X19.668 Y-20.052 I-3.912 J1.048
G1 X-8.36 Y-20.076
G3 X-9.634 Y-20.927 I0.001 J-1.381
G2 X-10.908 Y-21.778 I-1.275 J0.53
G1 X-34.445 Y-21.797
G2 X-34.764 Y-21.478 I0 J0.319
G1 Y9.473
G2 X-34.445 Y9.793 I0.319 J0
G1 X32.269
G2 X32.499 Y9.493 I0 J-0.238
G1 X25.222 Y-17.491
G2 X19.668 Y-21.752 I-5.554 J1.488
G1 X-10.908 Y-21.778
G3 X-12.182 Y-22.628 I0.001 J-1.381
G2 X-13.455 Y-23.479 I-1.275 J0.53
G1 X-36.145 Y-23.497
G2 X-36.464 Y-23.178 I0 J0.319
G1 X-36.419 Y9.998
G2 X-34.969 Y11.448 I1.45 J0
G1 X34.485 Y11.493
G2 X34.715 Y11.193 I0 J-0.238
G1 X26.864 Y-17.931
G2 X19.668 Y-23.452 I-7.196 J1.928
G1 X-13.455 Y-23.479
G3 X-14.729 Y-24.33 I0.001 J-1.381
G2 X-16.003 Y-25.18 I-1.275 J0.53
G1 X-37.845 Y-25.197
G2 X-38.164 Y-24.878 I0 J0.319
G1 X-38.119 Y9.998
G2 X-34.969 Y13.148 I3.15 J0
G1 X36.7 Y13.193
G2 X36.93 Y12.893 I0 J-0.238
G1 X28.506 Y-18.371
G2 X19.668 Y-25.152 I-8.838 J2.368
G1 X-16.003 Y-25.18
G3 X-17.276 Y-26.031 I0.001 J-1.381
G2 X-18.55 Y-26.881 I-1.275 J0.53
G1 X-39.545 Y-26.897
G2 X-39.864 Y-26.578 I0 J0.319
G1 X-39.819 Y9.998
G2 X-34.969 Y14.848 I4.85 J0
G1 X38.916 Y14.893
G2 X39.146 Y14.593 I0 J-0.238
G1 X30.149 Y-18.811
G2 X19.668 Y-26.852 I-10.48 J2.808
G1 X-18.55 Y-26.881
G3 X-19.824 Y-27.732 I0.001 J-1.381
G2 X-21.098 Y-28.583 I-1.275 J0.53
G1 X-41.245 Y-28.597
G2 X-41.564 Y-28.278 I0 J0.319
G1 X-41.519 Y9.998
G2 X-34.969 Y16.548 I6.55 J0
G1 X41.131 Y16.593
G2 X41.361 Y16.293 I0 J-0.238
G1 X31.791 Y-19.251
G2 X19.668 Y-28.552 I-12.122 J3.248
G1 X-21.098 Y-28.583
G3 X-22.349 Y-29.417 I0.001 J-1.357
G2 X-23.601 Y-30.252 I-1.252 J0.521
G1 X-41.969
G2 X-43.219 Y-29.002 I0 J1.25
G1 Y9.998
G2 X-34.969 Y18.248 I8.25 J0
G1 X41.969
G2 X43.176 Y16.674 I0 J-1.25
G1 X33.433 Y-19.691
G2 X19.668 Y-30.252 I-13.764 J3.688
G1 X-23.601
G3 X-24.876 Y-31.102 I0 J-1.381
G2 X-26.151 Y-31.952 I-1.275 J0.531
G1 X-41.969
G2 X-44.919 Y-29.002 I0 J2.95
G1 Y9.998
G2 X-34.969 Y19.948 I9.95 J0
G1 X41.969
G2 X44.819 Y16.234 I0 J-2.95
G1 X35.075 Y-20.131
G2 X19.668 Y-31.952 I-15.407 J4.128
G1 X-26.151
G3 X-27.426 Y-32.802 I0 J-1.381
G2 X-28.701 Y-33.652 I-1.275 J0.531
G1 X-41.969
G2 X-46.619 Y-29.002 I0 J4.65
G1 Y9.998
G2 X-34.969 Y21.648 I11.65 J0
G1 X41.969
G2 X46.461 Y15.794 I0 J-4.65
G1 X36.717 Y-20.571
G2 X19.668 Y-33.652 I-17.049 J4.568
G1 X-28.701
G3 X-29.976 Y-34.502 I0 J-1.381
G2 X-31.251 Y-35.352 I-1.275 J0.531
G1 X-41.969
G2 X-48.319 Y-29.002 I0 J6.35
G1 Y9.998
G2 X-34.969 Y23.348 I13.35 J0
G1 X41.969
G2 X48.103 Y15.354 I0 J-6.35
G1 X38.359 Y-21.011
G2 X19.668 Y-35.352 I-18.691 J5.008
G1 X-31.251
G3 X-32.526 Y-36.202 I0 J-1.381
G2 X-33.801 Y-37.052 I-1.275 J0.531
G1 X-41.969
G2 X-50.019 Y-29.002 I0 J8.05
G1 Y9.998
G2 X-34.969 Y25.048 I15.05 J0
G1 X41.969
G2 X49.745 Y14.914 I0 J-8.05
G1 X40.001 Y-21.451
G2 X19.668 Y-37.052 I-20.333 J5.448
G1 X-33.801
G3 X-35.076 Y-37.902 I0 J-1.381
G2 X-36.351 Y-38.752 I-1.275 J0.531
G1 X-41.969
G2 X-51.719 Y-29.002 I0 J9.75
G1 Y9.998
G2 X-34.969 Y26.748 I16.75 J0
G1 X41.969
G2 X51.387 Y14.474 I0 J-9.75
G1 X41.643 Y-21.891
G2 X19.668 Y-38.752 I-21.975 J5.888
G1 X-36.351
G3 X-37.664 Y-39.627 I0 J-1.422
G2 X-38.976 Y-40.502 I-1.313 J0.547
G1 X-41.969
G2 X-53.469 Y-29.002 I0 J11.5
G1 Y9.998
G2 X-34.969 Y28.498 I18.5 J0
G1 X41.969
G2 X53.077 Y14.021 I0 J-11.5
G1 X43.333 Y-22.343
G2 X19.668 Y-40.502 I-23.665 J6.341
G1 X-38.976
X-39.033 Y-40.497 Z-0.871 F500
X-39.088 Y-40.481 Z-0.86
X-39.132 Y-40.459 Z-0.827
X-39.171 Y-40.43 Z-0.794
X-39.216 Y-40.383 Z-0.697
X-39.229 Y-40.364 Z-0.582
G0 Z5
X13.168 Y-4.263
G1 Z1.917 F333.3
X13.189 Y-4.295 Z1.77
X13.244 Y-4.386 Z1.661
X13.307 Y-4.517 Z1.618
G2 X10.683 Y-5.628 Z1.468 I-1.312 J-0.555
X13.307 Y-4.517 Z1.318 I1.312 J0.555
X10.683 Y-5.628 Z1.168 I-1.312 J-0.555
X13.307 Y-4.517 Z1.018 I1.312 J0.555
X10.683 Y-5.628 Z0.868 I-1.312 J-0.555
X13.307 Y-4.517 Z0.718 I1.312 J0.555
X10.683 Y-5.628 Z0.568 I-1.312 J-0.555
X13.307 Y-4.517 Z0.418 I1.312 J0.555
X10.683 Y-5.628 Z0.268 I-1.312 J-0.555
X13.307 Y-4.517 Z0.118 I1.312 J0.555
X10.683 Y-5.628 Z-0.032 I-1.312 J-0.555
X13.307 Y-4.517 Z-0.182 I1.312 J0.555
X10.683 Y-5.628 Z-0.332 I-1.312 J-0.555
X13.307 Y-4.517 Z-0.482 I1.312 J0.555
X10.683 Y-5.628 Z-0.632 I-1.312 J-0.555
X13.307 Y-4.517 Z-0.782 I1.312 J0.555
X10.683 Y-5.628 Z-0.932 I-1.312 J-0.555
X13.307 Y-4.517 Z-1.082 I1.312 J0.555
X11.995 Y-6.497 Z-1.176 I-1.312 J-0.555
G1 X-19.145 F1000
G2 X-19.464 Y-6.178 I0 J0.319
G1 Y-5.827
G2 X-19.145 Y-5.507 I0.319 J0
G1 X12.33
G2 X12.56 Y-5.807 I0 J-0.238
G1 X12.465 Y-6.16
G2 X12.026 Y-6.497 I-0.439 J0.118
G1 X11.995
G3 X10.72 Y-7.347 I0 J-1.381
G2 X9.445 Y-8.197 I-1.275 J0.531
G1 X-20.845
G2 X-21.164 Y-7.878 I0 J0.319
G1 Y-4.127
G2 X-20.845 Y-3.807 I0.319 J0
G1 X14.546
G2 X14.775 Y-4.107 I0 J-0.238
G1 X13.77 Y-7.86
G2 X13.33 Y-8.197 I-0.439 J0.118
G1 X9.445
G3 X8.17 Y-9.047 I0 J-1.381
G2 X6.895 Y-9.897 I-1.275 J0.531
G1 X-22.545
G2 X-22.864 Y-9.578 I0 J0.319
G1 Y-2.427
G2 X-22.545 Y-2.107 I0.319 J0
G1 X16.761
G2 X16.991 Y-2.407 I0 J-0.238
G1 X15.074 Y-9.56
G2 X14.635 Y-9.897 I-0.439 J0.118
G1 X6.895
G3 X5.62 Y-10.747 I0 J-1.381
G2 X4.345 Y-11.597 I-1.275 J0.531
G1 X-24.245
G2 X-24.564 Y-11.278 I0 J0.319
G1 Y-0.727
G2 X-24.245 Y-0.407 I0.319 J0
G1 X18.977
G2 X19.206 Y-0.707 I0 J-0.238
G1 X16.378 Y-11.26
G2 X15.939 Y-11.597 I-0.439 J0.118
G1 X4.345
G3 X3.07 Y-12.447 I0 J-1.381
G2 X1.795 Y-13.297 I-1.275 J0.531
G1 X-25.945
G2 X-26.264 Y-12.978 I0 J0.319
G1 Y0.973
G2 X-25.945 Y1.293 I0.319 J0
G1 X21.192
G2 X21.422 Y0.993 I0 J-0.238
G1 X17.683 Y-12.96
G2 X17.244 Y-13.297 I-0.439 J0.118
G1 X1.795
G3 X0.52 Y-14.147 I0 J-1.381
G2 X-0.755 Y-14.997 I-1.275 J0.531
G1 X-27.645
G2 X-27.964 Y-14.678 I0 J0.319
G1 Y2.673
G2 X-27.645 Y2.993 I0.319 J0
G1 X23.408
G2 X23.637 Y2.693 I0 J-0.238
G1 X18.987 Y-14.66
G2 X18.548 Y-14.997 I-0.439 J0.118
G1 X-0.755
G3 X-2.01 Y-15.835 I0 J-1.359
G2 X-3.266 Y-16.673 I-1.257 J0.523
G1 X-29.345 Y-16.697
G2 X-29.664 Y-16.378 I0 J0.319
G1 Y4.373
G2 X-29.345 Y4.693 I0.319 J0
G1 X25.623
G2 X25.853 Y4.393 I0 J-0.238
G1 X20.296 Y-16.171
G2 X19.668 Y-16.652 I-0.628 J0.168
G1 X-3.266 Y-16.673
G3 X-4.539 Y-17.524 I0.001 J-1.381
G2 X-5.813 Y-18.375 I-1.275 J0.53
G1 X-31.045 Y-18.397
G2 X-31.364 Y-18.078 I0 J0.319
G1 Y6.073
G2 X-31.045 Y6.393 I0.319 J0
G1 X27.838
G2 X28.068 Y6.093 I0 J-0.238
G1 X21.938 Y-16.611
G2 X19.668 Y-18.352 I-2.27 J0.608
G1 X-5.813 Y-18.375
G3 X-7.087 Y-19.226 I0.001 J-1.381
G2 X-8.36 Y-20.076 I-1.275 J0.53
G1 X-32.745 Y-20.097
G2 X-33.064 Y-19.778 I0 J0.319
G1 Y7.773
G2 X-32.745 Y8.093 I0.319 J0
G1 X30.054
G2 X30.284 Y7.793 I0 J-0.238
G1 X23.58 Y-17.051
G2 X19.668 Y-20.052 I-3.912 J1.048
G1 X-8.36 Y-20.076
G3 X-9.634 Y-20.927 I0.001 J-1.381
G2 X-10.908 Y-21.778 I-1.275 J0.53
G1 X-34.445 Y-21.797
G2 X-34.764 Y-21.478 I0 J0.319
G1 Y9.473
G2 X-34.445 Y9.793 I0.319 J0
G1 X32.269
G2 X32.499 Y9.493 I0 J-0.238
G1 X25.222 Y-17.491
G2 X19.668 Y-21.752 I-5.554 J1.488
G1 X-10.908 Y-21.778
G3 X-12.182 Y-22.628 I0.001 J-1.381
G2 X-13.455 Y-23.479 I-1.275 J0.53
G1 X-36.145 Y-23.497
G2 X-36.464 Y-23.178 I0 J0.319
G1 X-36.419 Y9.998
G2 X-34.969 Y11.448 I1.45 J0
G1 X34.485 Y11.493
G2 X34.715 Y11.193 I0 J-0.238
G1 X26.864 Y-17.931
G2 X19.668 Y-23.452 I-7.196 J1.928
G1 X-13.455 Y-23.479
G3 X-14.729 Y-24.33 I0.001 J-1.381
G2 X-16.003 Y-25.18 I-1.275 J0.53
G1 X-37.845 Y-25.197
G2 X-38.164 Y-24.878 I0 J0.319
G1 X-38.119 Y9.998
G2 X-34.969 Y13.148 I3.15 J0
G1 X36.7 Y13.193
G2 X36.93 Y12.893 I0 J-0.238
G1 X28.506 Y-18.371
G2 X19.668 Y-25.152 I-8.838 J2.368
G1 X-16.003 Y-25.18
G3 X-17.276 Y-26.031 I0.001 J-1.381
G2 X-18.55 Y-26.881 I-1.275 J0.53
G1 X-39.545 Y-26.897
G2 X-39.864 Y-26.578 I0 J0.319
G1 X-39.819 Y9.998
G2 X-34.969 Y14.848 I4.85 J0
G1 X38.916 Y14.893
G2 X39.146 Y14.593 I0 J-0.238
G1 X30.149 Y-18.811
G2 X19.668 Y-26.852 I-10.48 J2.808
G1 X-18.55 Y-26.881
G3 X-19.824 Y-27.732 I0.001 J-1.381
G2 X-21.098 Y-28.583 I-1.275 J0.53
G1 X-41.245 Y-28.597
G2 X-41.564 Y-28.278 I0 J0.319
G1 X-41.519 Y9.998
G2 X-34.969 Y16.548 I6.55 J0
G1 X41.131 Y16.593
G2 X41.361 Y16.293 I0 J-0.238
G1 X31.791 Y-19.251
G2 X19.668 Y-28.552 I-12.122 J3.248
G1 X-21.098 Y-28.583
G3 X-22.349 Y-29.417 I0.001 J-1.357
G2 X-23.601 Y-30.252 I-1.252 J0.521
G1 X-41.969
G2 X-43.219 Y-29.002 I0 J1.25
G1 Y9.998
G2 X-34.969 Y18.248 I8.25 J0
G1 X41.969
G2 X43.176 Y16.674 I0 J-1.25
G1 X33.433 Y-19.691
G2 X19.668 Y-30.252 I-13.764 J3.688
G1 X-23.601
G3 X-24.876 Y-31.102 I0 J-1.381
G2 X-26.151 Y-31.952 I-1.275 J0.531
G1 X-41.969
G2 X-44.919 Y-29.002 I0 J2.95
G1 Y9.998
G2 X-34.969 Y19.948 I9.95 J0
G1 X41.969
G2 X44.819 Y16.234 I0 J-2.95
G1 X35.075 Y-20.131
G2 X19.668 Y-31.952 I-15.407 J4.128
G1 X-26.151
G3 X-27.426 Y-32.802 I0 J-1.381
G2 X-28.701 Y-33.652 I-1.275 J0.531
G1 X-41.969
G2 X-46.619 Y-29.002 I0 J4.65
G1 Y9.998
G2 X-34.969 Y21.648 I11.65 J0
G1 X41.969
G2 X46.461 Y15.794 I0 J-4.65
G1 X36.717 Y-20.571
G2 X19.668 Y-33.652 I-17.049 J4.568
G1 X-28.701
G3 X-29.976 Y-34.502 I0 J-1.381
G2 X-31.251 Y-35.352 I-1.275 J0.531
G1 X-41.969
G2 X-48.319 Y-29.002 I0 J6.35
G1 Y9.998
G2 X-34.969 Y23.348 I13.35 J0
G1 X41.969
G2 X48.103 Y15.354 I0 J-6.35
G1 X38.359 Y-21.011
G2 X19.668 Y-35.352 I-18.691 J5.008
G1 X-31.251
G3 X-32.526 Y-36.202 I0 J-1.381
G2 X-33.801 Y-37.052 I-1.275 J0.531
G1 X-41.969
G2 X-50.019 Y-29.002 I0 J8.05
G1 Y9.998
G2 X-34.969 Y25.048 I15.05 J0
G1 X41.969
G2 X49.745 Y14.914 I0 J-8.05
G1 X40.001 Y-21.451
G2 X19.668 Y-37.052 I-20.333 J5.448
G1 X-33.801
G3 X-35.076 Y-37.902 I0 J-1.381
G2 X-36.351 Y-38.752 I-1.275 J0.531
G1 X-41.969
G2 X-51.719 Y-29.002 I0 J9.75
G1 Y9.998
G2 X-34.969 Y26.748 I16.75 J0
G1 X41.969
G2 X51.387 Y14.474 I0 J-9.75
G1 X41.643 Y-21.891
G2 X19.668 Y-38.752 I-21.975 J5.888
G1 X-36.351
G3 X-37.664 Y-39.627 I0 J-1.422
G2 X-38.976 Y-40.502 I-1.313 J0.547
G1 X-41.969
G2 X-53.469 Y-29.002 I0 J11.5
G1 Y9.998
G2 X-34.969 Y28.498 I18.5 J0
G1 X41.969
G2 X53.077 Y14.021 I0 J-11.5
G1 X43.333 Y-22.343
G2 X19.668 Y-40.502 I-23.665 J6.341
G1 X-38.976
X-39.033 Y-40.497 Z-1.165 F500
X-39.088 Y-40.481 Z-1.154
X-39.132 Y-40.459 Z-1.121
X-39.171 Y-40.43 Z-1.089
X-39.216 Y-40.383 Z-0.991
X-39.229 Y-40.364 Z-0.876
G0 Z5
X13.168 Y-4.263
G1 Z1.623 F333.3
X13.189 Y-4.295 Z1.476
X13.244 Y-4.386 Z1.367
X13.307 Y-4.517 Z1.324
G2 X10.683 Y-5.628 Z1.174 I-1.312 J-0.555
X13.307 Y-4.517 Z1.024 I1.312 J0.555
X10.683 Y-5.628 Z0.874 I-1.312 J-0.555
X13.307 Y-4.517 Z0.724 I1.312 J0.555
X10.683 Y-5.628 Z0.574 I-1.312 J-0.555
X13.307 Y-4.517 Z0.424 I1.312 J0.555
X10.683 Y-5.628 Z0.274 I-1.312 J-0.555
X13.307 Y-4.517 Z0.124 I1.312 J0.555
X10.683 Y-5.628 Z-0.026 I-1.312 J-0.555
X13.307 Y-4.517 Z-0.176 I1.312 J0.555
X10.683 Y-5.628 Z-0.326 I-1.312 J-0.555
X13.307 Y-4.517 Z-0.476 I1.312 J0.555
X10.683 Y-5.628 Z-0.626 I-1.312 J-0.555
X13.307 Y-4.517 Z-0.776 I1.312 J0.555
X10.683 Y-5.628 Z-0.926 I-1.312 J-0.555
X13.307 Y-4.517 Z-1.076 I1.312 J0.555
X10.683 Y-5.628 Z-1.226 I-1.312 J-0.555
X13.307 Y-4.517 Z-1.376 I1.312 J0.555
X11.995 Y-6.497 Z-1.471 I-1.312 J-0.555
G1 X-19.145 F1000
G2 X-19.464 Y-6.178 I0 J0.319
G1 Y-5.827
G2 X-19.145 Y-5.507 I0.319 J0
G1 X12.33
G2 X12.56 Y-5.807 I0 J-0.238
G1 X12.465 Y-6.16
G2 X12.026 Y-6.497 I-0.439 J0.118
G1 X11.995
G3 X10.72 Y-7.347 I0 J-1.381
G2 X9.445 Y-8.197 I-1.275 J0.531
G1 X-20.845
G2 X-21.164 Y-7.878 I0 J0.319
G1 Y-4.127
G2 X-20.845 Y-3.807 I0.319 J0
G1 X14.546
G2 X14.775 Y-4.107 I0 J-0.238
G1 X13.77 Y-7.86
G2 X13.33 Y-8.197 I-0.439 J0.118
G1 X9.445
G3 X8.17 Y-9.047 I0 J-1.381
G2 X6.895 Y-9.897 I-1.275 J0.531
G1 X-22.545
G2 X-22.864 Y-9.578 I0 J0.319
G1 Y-2.427
G2 X-22.545 Y-2.107 I0.319 J0
G1 X16.761
G2 X16.991 Y-2.407 I0 J-0.238
G1 X15.074 Y-9.56
G2 X14.635 Y-9.897 I-0.439 J0.118
G1 X6.895
G3 X5.62 Y-10.747 I0 J-1.381
G2 X4.345 Y-11.597 I-1.275 J0.531
G1 X-24.245
G2 X-24.564 Y-11.278 I0 J0.319
G1 Y-0.727
G2 X-24.245 Y-0.407 I0.319 J0
G1 X18.977
G2 X19.206 Y-0.707 I0 J-0.238
G1 X16.378 Y-11.26
G2 X15.939 Y-11.597 I-0.439 J0.118
G1 X4.345
G3 X3.07 Y-12.447 I0 J-1.381
G2 X1.795 Y-13.297 I-1.275 J0.531
G1 X-25.945
G2 X-26.264 Y-12.978 I0 J0.319
G1 Y0.973
G2 X-25.945 Y1.293 I0.319 J0
G1 X21.192
G2 X21.422 Y0.993 I0 J-0.238
G1 X17.683 Y-12.96
G2 X17.244 Y-13.297 I-0.439 J0.118
G1 X1.795
G3 X0.52 Y-14.147 I0 J-1.381
G2 X-0.755 Y-14.997 I-1.275 J0.531
G1 X-27.645
G2 X-27.964 Y-14.678 I0 J0.319
G1 Y2.673
G2 X-27.645 Y2.993 I0.319 J0
G1 X23.408
G2 X23.637 Y2.693 I0 J-0.238
G1 X18.987 Y-14.66
G2 X18.548 Y-14.997 I-0.439 J0.118
G1 X-0.755
G3 X-2.01 Y-15.835 I0 J-1.359
G2 X-3.266 Y-16.673 I-1.257 J0.523
G1 X-29.345 Y-16.697
G2 X-29.664 Y-16.378 I0 J0.319
G1 Y4.373
G2 X-29.345 Y4.693 I0.319 J0
G1 X25.623
G2 X25.853 Y4.393 I0 J-0.238
G1 X20.296 Y-16.171
G2 X19.668 Y-16.652 I-0.628 J0.168
G1 X-3.266 Y-16.673
G3 X-4.539 Y-17.524 I0.001 J-1.381
G2 X-5.813 Y-18.375 I-1.275 J0.53
G1 X-31.045 Y-18.397
G2 X-31.364 Y-18.078 I0 J0.319
G1 Y6.073
G2 X-31.045 Y6.393 I0.319 J0
G1 X27.838
G2 X28.068 Y6.093 I0 J-0.238
G1 X21.938 Y-16.611
G2 X19.668 Y-18.352 I-2.27 J0.608
G1 X-5.813 Y-18.375
G3 X-7.087 Y-19.226 I0.001 J-1.381
G2 X-8.36 Y-20.076 I-1.275 J0.53
G1 X-32.745 Y-20.097
G2 X-33.064 Y-19.778 I0 J0.319
G1 Y7.773
G2 X-32.745 Y8.093 I0.319 J0
G1 X30.054
G2 X30.284 Y7.793 I0 J-0.238
G1 X23.58 Y-17.051
G2 X19.668 Y-20.052 I-3.912 J1.048
G1 X-8.36 Y-20.076
G3 X-9.634 Y-20.927 I0.001 J-1.381
G2 X-10.908 Y-21.778 I-1.275 J0.53
G1 X-34.445 Y-21.797
G2 X-34.764 Y-21.478 I0 J0.319
G1 Y9.473
G2 X-34.445 Y9.793 I0.319 J0
G1 X32.269
G2 X32.499 Y9.493 I0 J-0.238
G1 X25.222 Y-17.491
G2 X19.668 Y-21.752 I-5.554 J1.488
G1 X-10.908 Y-21.778
G3 X-12.182 Y-22.628 I0.001 J-1.381
G2 X-13.455 Y-23.479 I-1.275 J0.53
G1 X-36.145 Y-23.497
G2 X-36.464 Y-23.178 I0 J0.319
G1 X-36.419 Y9.998
G2 X-34.969 Y11.448 I1.45 J0
G1 X34.485 Y11.493
G2 X34.715 Y11.193 I0 J-0.238
G1 X26.864 Y-17.931
G2 X19.668 Y-23.452 I-7.196 J1.928
G1 X-13.455 Y-23.479
G3 X-14.729 Y-24.33 I0.001 J-1.381
G2 X-16.003 Y-25.18 I-1.275 J0.53
G1 X-37.845 Y-25.197
G2 X-38.164 Y-24.878 I0 J0.319
G1 X-38.119 Y9.998
G2 X-34.969 Y13.148 I3.15 J0
G1 X36.7 Y13.193
G2 X36.93 Y12.893 I0 J-0.238
G1 X28.506 Y-18.371
G2 X19.668 Y-25.152 I-8.838 J2.368
G1 X-16.003 Y-25.18
G3 X-17.276 Y-26.031 I0.001 J-1.381
G2 X-18.55 Y-26.881 I-1.275 J0.53
G1 X-39.545 Y-26.897
G2 X-39.864 Y-26.578 I0 J0.319
G1 X-39.819 Y9.998
G2 X-34.969 Y14.848 I4.85 J0
G1 X38.916 Y14.893
G2 X39.146 Y14.593 I0 J-0.238
G1 X30.149 Y-18.811
G2 X19.668 Y-26.852 I-10.48 J2.808
G1 X-18.55 Y-26.881
G3 X-19.824 Y-27.732 I0.001 J-1.381
G2 X-21.098 Y-28.583 I-1.275 J0.53
G1 X-41.245 Y-28.597
G2 X-41.564 Y-28.278 I0 J0.319
G1 X-41.519 Y9.998
G2 X-34.969 Y16.548 I6.55 J0
G1 X41.131 Y16.593
G2 X41.361 Y16.293 I0 J-0.238
G1 X31.791 Y-19.251
G2 X19.668 Y-28.552 I-12.122 J3.248
G1 X-21.098 Y-28.583
G3 X-22.349 Y-29.417 I0.001 J-1.357
G2 X-23.601 Y-30.252 I-1.252 J0.521
G1 X-41.969
G2 X-43.219 Y-29.002 I0 J1.25
G1 Y9.998
G2 X-34.969 Y18.248 I8.25 J0
G1 X41.969
G2 X43.176 Y16.674 I0 J-1.25
G1 X33.433 Y-19.691
G2 X19.668 Y-30.252 I-13.764 J3.688
G1 X-23.601
G3 X-24.876 Y-31.102 I0 J-1.381
G2 X-26.151 Y-31.952 I-1.275 J0.531
G1 X-41.969
G2 X-44.919 Y-29.002 I0 J2.95
G1 Y9.998
G2 X-34.969 Y19.948 I9.95 J0
G1 X41.969
G2 X44.819 Y16.234 I0 J-2.95
G1 X35.075 Y-20.131
G2 X19.668 Y-31.952 I-15.407 J4.128
G1 X-26.151
G3 X-27.426 Y-32.802 I0 J-1.381
G2 X-28.701 Y-33.652 I-1.275 J0.531
G1 X-41.969
G2 X-46.619 Y-29.002 I0 J4.65
G1 Y9.998
G2 X-34.969 Y21.648 I11.65 J0
G1 X41.969
G2 X46.461 Y15.794 I0 J-4.65
G1 X36.717 Y-20.571
G2 X19.668 Y-33.652 I-17.049 J4.568
G1 X-28.701
G3 X-29.976 Y-34.502 I0 J-1.381
G2 X-31.251 Y-35.352 I-1.275 J0.531
G1 X-41.969
G2 X-48.319 Y-29.002 I0 J6.35
G1 Y9.998
G2 X-34.969 Y23.348 I13.35 J0
G1 X41.969
G2 X48.103 Y15.354 I0 J-6.35
G1 X38.359 Y-21.011
G2 X19.668 Y-35.352 I-18.691 J5.008
G1 X-31.251
G3 X-32.526 Y-36.202 I0 J-1.381
G2 X-33.801 Y-37.052 I-1.275 J0.531
G1 X-41.969
G2 X-50.019 Y-29.002 I0 J8.05
G1 Y9.998
G2 X-34.969 Y25.048 I15.05 J0
G1 X41.969
G2 X49.745 Y14.914 I0 J-8.05
G1 X40.001 Y-21.451
G2 X19.668 Y-37.052 I-20.333 J5.448
G1 X-33.801
G3 X-35.076 Y-37.902 I0 J-1.381
G2 X-36.351 Y-38.752 I-1.275 J0.531
G1 X-41.969
G2 X-51.719 Y-29.002 I0 J9.75
G1 Y9.998
G2 X-34.969 Y26.748 I16.75 J0
G1 X41.969
G2 X51.387 Y14.474 I0 J-9.75
G1 X41.643 Y-21.891
G2 X19.668 Y-38.752 I-21.975 J5.888
G1 X-36.351
G3 X-37.664 Y-39.627 I0 J-1.422
G2 X-38.976 Y-40.502 I-1.313 J0.547
G1 X-41.969
G2 X-53.469 Y-29.002 I0 J11.5
G1 Y9.998
G2 X-34.969 Y28.498 I18.5 J0
G1 X41.969
G2 X53.077 Y14.021 I0 J-11.5
G1 X43.333 Y-22.343
G2 X19.668 Y-40.502 I-23.665 J6.341
G1 X-38.976
X-39.033 Y-40.497 Z-1.459 F500
X-39.088 Y-40.481 Z-1.448
X-39.132 Y-40.459 Z-1.415
X-39.171 Y-40.43 Z-1.383
X-39.216 Y-40.383 Z-1.285
X-39.229 Y-40.364 Z-1.171
G0 Z5
X13.168 Y-4.263
G1 Z1.329 F333.3
X13.189 Y-4.295 Z1.182
X13.244 Y-4.386 Z1.073
X13.307 Y-4.517 Z1.029
G2 X10.683 Y-5.628 Z0.879 I-1.312 J-0.555
X13.307 Y-4.517 Z0.729 I1.312 J0.555
X10.683 Y-5.628 Z0.579 I-1.312 J-0.555
X13.307 Y-4.517 Z0.429 I1.312 J0.555
X10.683 Y-5.628 Z0.279 I-1.312 J-0.555
X13.307 Y-4.517 Z0.129 I1.312 J0.555
X10.683 Y-5.628 Z-0.021 I-1.312 J-0.555
X13.307 Y-4.517 Z-0.171 I1.312 J0.555
X10.683 Y-5.628 Z-0.321 I-1.312 J-0.555
X13.307 Y-4.517 Z-0.471 I1.312 J0.555
X10.683 Y-5.628 Z-0.621 I-1.312 J-0.555
X13.307 Y-4.517 Z-0.771 I1.312 J0.555
X10.683 Y-5.628 Z-0.921 I-1.312 J-0.555
X13.307 Y-4.517 Z-1.071 I1.312 J0.555
X10.683 Y-5.628 Z-1.221 I-1.312 J-0.555
X13.307 Y-4.517 Z-1.371 I1.312 J0.555
X10.683 Y-5.628 Z-1.521 I-1.312 J-0.555
X13.307 Y-4.517 Z-1.671 I1.312 J0.555
X11.995 Y-6.497 Z-1.765 I-1.312 J-0.555
G1 X-19.145 F1000
G2 X-19.464 Y-6.178 I0 J0.319
G1 Y-5.827
G2 X-19.145 Y-5.507 I0.319 J0
G1 X12.33
G2 X12.56 Y-5.807 I0 J-0.238
G1 X12.465 Y-6.16
G2 X12.026 Y-6.497 I-0.439 J0.118
G1 X11.995
G3 X10.72 Y-7.347 I0 J-1.381
G2 X9.445 Y-8.197 I-1.275 J0.531
G1 X-20.845
G2 X-21.164 Y-7.878 I0 J0.319
G1 Y-4.127
G2 X-20.845 Y-3.807 I0.319 J0
G1 X14.546
G2 X14.775 Y-4.107 I0 J-0.238
G1 X13.77 Y-7.86
G2 X13.33 Y-8.197 I-0.439 J0.118
G1 X9.445
G3 X8.17 Y-9.047 I0 J-1.381
G2 X6.895 Y-9.897 I-1.275 J0.531
G1 X-22.545
G2 X-22.864 Y-9.578 I0 J0.319
G1 Y-2.427
G2 X-22.545 Y-2.107 I0.319 J0
G1 X16.761
G2 X16.991 Y-2.407 I0 J-0.238
G1 X15.074 Y-9.56
G2 X14.635 Y-9.897 I-0.439 J0.118
G1 X6.895
G3 X5.62 Y-10.747 I0 J-1.381
G2 X4.345 Y-11.597 I-1.275 J0.531
G1 X-24.245
G2 X-24.564 Y-11.278 I0 J0.319
G1 Y-0.727
G2 X-24.245 Y-0.407 I0.319 J0
G1 X18.977
G2 X19.206 Y-0.707 I0 J-0.238
G1 X16.378 Y-11.26
G2 X15.939 Y-11.597 I-0.439 J0.118
G1 X4.345
G3 X3.07 Y-12.447 I0 J-1.381
G2 X1.795 Y-13.297 I-1.275 J0.531
G1 X-25.945
G2 X-26.264 Y-12.978 I0 J0.319
G1 Y0.973
G2 X-25.945 Y1.293 I0.319 J0
G1 X21.192
G2 X21.422 Y0.993 I0 J-0.238
G1 X17.683 Y-12.96
G2 X17.244 Y-13.297 I-0.439 J0.118
G1 X1.795
G3 X0.52 Y-14.147 I0 J-1.381
G2 X-0.755 Y-14.997 I-1.275 J0.531
G1 X-27.645
G2 X-27.964 Y-14.678 I0 J0.319
G1 Y2.673
G2 X-27.645 Y2.993 I0.319 J0
G1 X23.408
G2 X23.637 Y2.693 I0 J-0.238
G1 X18.987 Y-14.66
G2 X18.548 Y-14.997 I-0.439 J0.118
G1 X-0.755
G3 X-2.01 Y-15.835 I0 J-1.359
G2 X-3.266 Y-16.673 I-1.257 J0.523
G1 X-29.345 Y-16.697
G2 X-29.664 Y-16.378 I0 J0.319
G1 Y4.373
G2 X-29.345 Y4.693 I0.319 J0
G1 X25.623
G2 X25.853 Y4.393 I0 J-0.238
G1 X20.296 Y-16.171
G2 X19.668 Y-16.652 I-0.628 J0.168
G1 X-3.266 Y-16.673
G3 X-4.539 Y-17.524 I0.001 J-1.381
G2 X-5.813 Y-18.375 I-1.275 J0.53
G1 X-31.045 Y-18.397
G2 X-31.364 Y-18.078 I0 J0.319
G1 Y6.073
G2 X-31.045 Y6.393 I0.319 J0
G1 X27.838
G2 X28.068 Y6.093 I0 J-0.238
G1 X21.938 Y-16.611
G2 X19.668 Y-18.352 I-2.27 J0.608
G1 X-5.813 Y-18.375
G3 X-7.087 Y-19.226 I0.001 J-1.381
G2 X-8.36 Y-20.076 I-1.275 J0.53
G1 X-32.745 Y-20.097
G2 X-33.064 Y-19.778 I0 J0.319
G1 Y7.773
G2 X-32.745 Y8.093 I0.319 J0
G1 X30.054
G2 X30.284 Y7.793 I0 J-0.238
G1 X23.58 Y-17.051
G2 X19.668 Y-20.052 I-3.912 J1.048
G1 X-8.36 Y-20.076
G3 X-9.634 Y-20.927 I0.001 J-1.381
G2 X-10.908 Y-21.778 I-1.275 J0.53
G1 X-34.445 Y-21.797
G2 X-34.764 Y-21.478 I0 J0.319
G1 Y9.473
G2 X-34.445 Y9.793 I0.319 J0
G1 X32.269
G2 X32.499 Y9.493 I0 J-0.238
G1 X25.222 Y-17.491
G2 X19.668 Y-21.752 I-5.554 J1.488
G1 X-10.908 Y-21.778
G3 X-12.182 Y-22.628 I0.001 J-1.381
G2 X-13.455 Y-23.479 I-1.275 J0.53
G1 X-36.145 Y-23.497
G2 X-36.464 Y-23.178 I0 J0.319
G1 X-36.419 Y9.998
G2 X-34.969 Y11.448 I1.45 J0
G1 X34.485 Y11.493
G2 X34.715 Y11.193 I0 J-0.238
G1 X26.864 Y-17.931
G2 X19.668 Y-23.452 I-7.196 J1.928
G1 X-13.455 Y-23.479
G3 X-14.729 Y-24.33 I0.001 J-1.381
G2 X-16.003 Y-25.18 I-1.275 J0.53
G1 X-37.845 Y-25.197
G2 X-38.164 Y-24.878 I0 J0.319
G1 X-38.119 Y9.998
G2 X-34.969 Y13.148 I3.15 J0
G1 X36.7 Y13.193
G2 X36.93 Y12.893 I0 J-0.238
G1 X28.506 Y-18.371
G2 X19.668 Y-25.152 I-8.838 J2.368
G1 X-16.003 Y-25.18
G3 X-17.276 Y-26.031 I0.001 J-1.381
G2 X-18.55 Y-26.881 I-1.275 J0.53
G1 X-39.545 Y-26.897
G2 X-39.864 Y-26.578 I0 J0.319
G1 X-39.819 Y9.998
G2 X-34.969 Y14.848 I4.85 J0
G1 X38.916 Y14.893
G2 X39.146 Y14.593 I0 J-0.238
G1 X30.149 Y-18.811
G2 X19.668 Y-26.852 I-10.48 J2.808
G1 X-18.55 Y-26.881
G3 X-19.824 Y-27.732 I0.001 J-1.381
G2 X-21.098 Y-28.583 I-1.275 J0.53
G1 X-41.245 Y-28.597
G2 X-41.564 Y-28.278 I0 J0.319
G1 X-41.519 Y9.998
G2 X-34.969 Y16.548 I6.55 J0
G1 X41.131 Y16.593
G2 X41.361 Y16.293 I0 J-0.238
G1 X31.791 Y-19.251
G2 X19.668 Y-28.552 I-12.122 J3.248
G1 X-21.098 Y-28.583
G3 X-22.349 Y-29.417 I0.001 J-1.357
G2 X-23.601 Y-30.252 I-1.252 J0.521
G1 X-41.969
G2 X-43.219 Y-29.002 I0 J1.25
G1 Y9.998
G2 X-34.969 Y18.248 I8.25 J0
G1 X41.969
G2 X43.176 Y16.674 I0 J-1.25
G1 X33.433 Y-19.691
G2 X19.668 Y-30.252 I-13.764 J3.688
G1 X-23.601
G3 X-24.876 Y-31.102 I0 J-1.381
G2 X-26.151 Y-31.952 I-1.275 J0.531
G1 X-41.969
G2 X-44.919 Y-29.002 I0 J2.95
G1 Y9.998
G2 X-34.969 Y19.948 I9.95 J0
G1 X41.969
G2 X44.819 Y16.234 I0 J-2.95
G1 X35.075 Y-20.131
G2 X19.668 Y-31.952 I-15.407 J4.128
G1 X-26.151
G3 X-27.426 Y-32.802 I0 J-1.381
G2 X-28.701 Y-33.652 I-1.275 J0.531
G1 X-41.969
G2 X-46.619 Y-29.002 I0 J4.65
G1 Y9.998
G2 X-34.969 Y21.648 I11.65 J0
G1 X41.969
G2 X46.461 Y15.794 I0 J-4.65
G1 X36.717 Y-20.571
G2 X19.668 Y-33.652 I-17.049 J4.568
G1 X-28.701
G3 X-29.976 Y-34.502 I0 J-1.381
G2 X-31.251 Y-35.352 I-1.275 J0.531
G1 X-41.969
G2 X-48.319 Y-29.002 I0 J6.35
G1 Y9.998
G2 X-34.969 Y23.348 I13.35 J0
G1 X41.969
G2 X48.103 Y15.354 I0 J-6.35
G1 X38.359 Y-21.011
G2 X19.668 Y-35.352 I-18.691 J5.008
G1 X-31.251
G3 X-32.526 Y-36.202 I0 J-1.381
G2 X-33.801 Y-37.052 I-1.275 J0.531
G1 X-41.969
G2 X-50.019 Y-29.002 I0 J8.05
G1 Y9.998
G2 X-34.969 Y25.048 I15.05 J0
G1 X41.969
G2 X49.745 Y14.914 I0 J-8.05
G1 X40.001 Y-21.451
G2 X19.668 Y-37.052 I-20.333 J5.448
G1 X-33.801
G3 X-35.076 Y-37.902 I0 J-1.381
G2 X-36.351 Y-38.752 I-1.275 J0.531
G1 X-41.969
G2 X-51.719 Y-29.002 I0 J9.75
G1 Y9.998
G2 X-34.969 Y26.748 I16.75 J0
G1 X41.969
G2 X51.387 Y14.474 I0 J-9.75
G1 X41.643 Y-21.891
G2 X19.668 Y-38.752 I-21.975 J5.888
G1 X-36.351
G3 X-37.664 Y-39.627 I0 J-1.422
G2 X-38.976 Y-40.502 I-1.313 J0.547
G1 X-41.969
G2 X-53.469 Y-29.002 I0 J11.5
G1 Y9.998
G2 X-34.969 Y28.498 I18.5 J0
G1 X41.969
G2 X53.077 Y14.021 I0 J-11.5
G1 X43.333 Y-22.343
G2 X19.668 Y-40.502 I-23.665 J6.341
G1 X-38.976
X-39.033 Y-40.497 Z-1.753 F500
X-39.088 Y-40.481 Z-1.742
X-39.132 Y-40.459 Z-1.709
X-39.171 Y-40.43 Z-1.677
X-39.216 Y-40.383 Z-1.58
X-39.229 Y-40.364 Z-1.465
G0 Z5
X13.168 Y-4.263
G1 Z1.035 F333.3
X13.189 Y-4.295 Z0.888
X13.244 Y-4.386 Z0.779
X13.307 Y-4.517 Z0.735
G2 X10.683 Y-5.628 Z0.585 I-1.312 J-0.555
X13.307 Y-4.517 Z0.435 I1.312 J0.555
X10.683 Y-5.628 Z0.285 I-1.312 J-0.555
X13.307 Y-4.517 Z0.135 I1.312 J0.555
X10.683 Y-5.628 Z-0.015 I-1.312 J-0.555
X13.307 Y-4.517 Z-0.165 I1.312 J0.555
X10.683 Y-5.628 Z-0.315 I-1.312 J-0.555
X13.307 Y-4.517 Z-0.465 I1.312 J0.555
X10.683 Y-5.628 Z-0.615 I-1.312 J-0.555
X13.307 Y-4.517 Z-0.765 I1.312 J0.555
X10.683 Y-5.628 Z-0.915 I-1.312 J-0.555
X13.307 Y-4.517 Z-1.065 I1.312 J0.555
X10.683 Y-5.628 Z-1.215 I-1.312 J-0.555
X13.307 Y-4.517 Z-1.365 I1.312 J0.555
X10.683 Y-5.628 Z-1.515 I-1.312 J-0.555
X13.307 Y-4.517 Z-1.665 I1.312 J0.555
X10.683 Y-5.628 Z-1.815 I-1.312 J-0.555
X13.307 Y-4.517 Z-1.965 I1.312 J0.555
X11.995 Y-6.497 Z-2.059 I-1.312 J-0.555
G1 X-19.145 F1000
G2 X-19.464 Y-6.178 I0 J0.319
G1 Y-5.827
G2 X-19.145 Y-5.507 I0.319 J0
G1 X12.33
G2 X12.56 Y-5.807 I0 J-0.238
G1 X12.465 Y-6.16
G2 X12.026 Y-6.497 I-0.439 J0.118
G1 X11.995
G3 X10.72 Y-7.347 I0 J-1.381
G2 X9.445 Y-8.197 I-1.275 J0.531
G1 X-20.845
G2 X-21.164 Y-7.878 I0 J0.319
G1 Y-4.127
G2 X-20.845 Y-3.807 I0.319 J0
G1 X14.546
G2 X14.775 Y-4.107 I0 J-0.238
G1 X13.77 Y-7.86
G2 X13.33 Y-8.197 I-0.439 J0.118
G1 X9.445
G3 X8.17 Y-9.047 I0 J-1.381
G2 X6.895 Y-9.897 I-1.275 J0.531
G1 X-22.545
G2 X-22.864 Y-9.578 I0 J0.319
G1 Y-2.427
G2 X-22.545 Y-2.107 I0.319 J0
G1 X16.761
G2 X16.991 Y-2.407 I0 J-0.238
G1 X15.074 Y-9.56
G2 X14.635 Y-9.897 I-0.439 J0.118
G1 X6.895
G3 X5.62 Y-10.747 I0 J-1.381
G2 X4.345 Y-11.597 I-1.275 J0.531
G1 X-24.245
G2 X-24.564 Y-11.278 I0 J0.319
G1 Y-0.727
G2 X-24.245 Y-0.407 I0.319 J0
G1 X18.977
G2 X19.206 Y-0.707 I0 J-0.238
G1 X16.378 Y-11.26
G2 X15.939 Y-11.597 I-0.439 J0.118
G1 X4.345
G3 X3.07 Y-12.447 I0 J-1.381
G2 X1.795 Y-13.297 I-1.275 J0.531
G1 X-25.945
G2 X-26.264 Y-12.978 I0 J0.319
G1 Y0.973
G2 X-25.945 Y1.293 I0.319 J0
G1 X21.192
G2 X21.422 Y0.993 I0 J-0.238
G1 X17.683 Y-12.96
G2 X17.244 Y-13.297 I-0.439 J0.118
G1 X1.795
G3 X0.52 Y-14.147 I0 J-1.381
G2 X-0.755 Y-14.997 I-1.275 J0.531
G1 X-27.645
G2 X-27.964 Y-14.678 I0 J0.319
G1 Y2.673
G2 X-27.645 Y2.993 I0.319 J0
G1 X23.408
G2 X23.637 Y2.693 I0 J-0.238
G1 X18.987 Y-14.66
G2 X18.548 Y-14.997 I-0.439 J0.118
G1 X-0.755
G3 X-2.01 Y-15.835 I0 J-1.359
G2 X-3.266 Y-16.673 I-1.257 J0.523
G1 X-29.345 Y-16.697
G2 X-29.664 Y-16.378 I0 J0.319
G1 Y4.373
G2 X-29.345 Y4.693 I0.319 J0
G1 X25.623
G2 X25.853 Y4.393 I0 J-0.238
G1 X20.296 Y-16.171
G2 X19.668 Y-16.652 I-0.628 J0.168
G1 X-3.266 Y-16.673
G3 X-4.539 Y-17.524 I0.001 J-1.381
G2 X-5.813 Y-18.375 I-1.275 J0.53
G1 X-31.045 Y-18.397
G2 X-31.364 Y-18.078 I0 J0.319
G1 Y6.073
G2 X-31.045 Y6.393 I0.319 J0
G1 X27.838
G2 X28.068 Y6.093 I0 J-0.238
G1 X21.938 Y-16.611
G2 X19.668 Y-18.352 I-2.27 J0.608
G1 X-5.813 Y-18.375
G3 X-7.087 Y-19.226 I0.001 J-1.381
G2 X-8.36 Y-20.076 I-1.275 J0.53
G1 X-32.745 Y-20.097
G2 X-33.064 Y-19.778 I0 J0.319
G1 Y7.773
G2 X-32.745 Y8.093 I0.319 J0
G1 X30.054
G2 X30.284 Y7.793 I0 J-0.238
G1 X23.58 Y-17.051
G2 X19.668 Y-20.052 I-3.912 J1.048
G1 X-8.36 Y-20.076
G3 X-9.634 Y-20.927 I0.001 J-1.381
G2 X-10.908 Y-21.778 I-1.275 J0.53
G1 X-34.445 Y-21.797
G2 X-34.764 Y-21.478 I0 J0.319
G1 Y9.473
G2 X-34.445 Y9.793 I0.319 J0
G1 X32.269
G2 X32.499 Y9.493 I0 J-0.238
G1 X25.222 Y-17.491
G2 X19.668 Y-21.752 I-5.554 J1.488
G1 X-10.908 Y-21.778
G3 X-12.182 Y-22.628 I0.001 J-1.381
G2 X-13.455 Y-23.479 I-1.275 J0.53
G1 X-36.145 Y-23.497
G2 X-36.464 Y-23.178 I0 J0.319
G1 X-36.419 Y9.998
G2 X-34.969 Y11.448 I1.45 J0
G1 X34.485 Y11.493
G2 X34.715 Y11.193 I0 J-0.238
G1 X26.864 Y-17.931
G2 X19.668 Y-23.452 I-7.196 J1.928
G1 X-13.455 Y-23.479
G3 X-14.729 Y-24.33 I0.001 J-1.381
G2 X-16.003 Y-25.18 I-1.275 J0.53
G1 X-37.845 Y-25.197
G2 X-38.164 Y-24.878 I0 J0.319
G1 X-38.119 Y9.998
G2 X-34.969 Y13.148 I3.15 J0
G1 X36.7 Y13.193
G2 X36.93 Y12.893 I0 J-0.238
G1 X28.506 Y-18.371
G2 X19.668 Y-25.152 I-8.838 J2.368
G1 X-16.003 Y-25.18
G3 X-17.276 Y-26.031 I0.001 J-1.381
G2 X-18.55 Y-26.881 I-1.275 J0.53
G1 X-39.545 Y-26.897
G2 X-39.864 Y-26.578 I0 J0.319
G1 X-39.819 Y9.998
G2 X-34.969 Y14.848 I4.85 J0
G1 X38.916 Y14.893
G2 X39.146 Y14.593 I0 J-0.238
G1 X30.149 Y-18.811
G2 X19.668 Y-26.852 I-10.48 J2.808
G1 X-18.55 Y-26.881
G3 X-19.824 Y-27.732 I0.001 J-1.381
G2 X-21.098 Y-28.583 I-1.275 J0.53
G1 X-41.245 Y-28.597
G2 X-41.564 Y-28.278 I0 J0.319
G1 X-41.519 Y9.998
G2 X-34.969 Y16.548 I6.55 J0
G1 X41.131 Y16.593
G2 X41.361 Y16.293 I0 J-0.238
G1 X31.791 Y-19.251
G2 X19.668 Y-28.552 I-12.122 J3.248
G1 X-21.098 Y-28.583
G3 X-22.349 Y-29.417 I0.001 J-1.357
G2 X-23.601 Y-30.252 I-1.252 J0.521
G1 X-41.969
G2 X-43.219 Y-29.002 I0 J1.25
G1 Y9.998
G2 X-34.969 Y18.248 I8.25 J0
G1 X41.969
G2 X43.176 Y16.674 I0 J-1.25
G1 X33.433 Y-19.691
G2 X19.668 Y-30.252 I-13.764 J3.688
G1 X-23.601
G3 X-24.876 Y-31.102 I0 J-1.381
G2 X-26.151 Y-31.952 I-1.275 J0.531
G1 X-41.969
G2 X-44.919 Y-29.002 I0 J2.95
G1 Y9.998
G2 X-34.969 Y19.948 I9.95 J0
G1 X41.969
G2 X44.819 Y16.234 I0 J-2.95
G1 X35.075 Y-20.131
G2 X19.668 Y-31.952 I-15.407 J4.128
G1 X-26.151
G3 X-27.426 Y-32.802 I0 J-1.381
G2 X-28.701 Y-33.652 I-1.275 J0.531
G1 X-41.969
G2 X-46.619 Y-29.002 I0 J4.65
G1 Y9.998
G2 X-34.969 Y21.648 I11.65 J0
G1 X41.969
G2 X46.461 Y15.794 I0 J-4.65
G1 X36.717 Y-20.571
G2 X19.668 Y-33.652 I-17.049 J4.568
G1 X-28.701
G3 X-29.976 Y-34.502 I0 J-1.381
G2 X-31.251 Y-35.352 I-1.275 J0.531
G1 X-41.969
G2 X-48.319 Y-29.002 I0 J6.35
G1 Y9.998
G2 X-34.969 Y23.348 I13.35 J0
G1 X41.969
G2 X48.103 Y15.354 I0 J-6.35
G1 X38.359 Y-21.011
G2 X19.668 Y-35.352 I-18.691 J5.008
G1 X-31.251
G3 X-32.526 Y-36.202 I0 J-1.381
G2 X-33.801 Y-37.052 I-1.275 J0.531
G1 X-41.969
G2 X-50.019 Y-29.002 I0 J8.05
G1 Y9.998
G2 X-34.969 Y25.048 I15.05 J0
G1 X41.969
G2 X49.745 Y14.914 I0 J-8.05
G1 X40.001 Y-21.451
G2 X19.668 Y-37.052 I-20.333 J5.448
G1 X-33.801
G3 X-35.076 Y-37.902 I0 J-1.381
G2 X-36.351 Y-38.752 I-1.275 J0.531
G1 X-41.969
G2 X-51.719 Y-29.002 I0 J9.75
G1 Y9.998
G2 X-34.969 Y26.748 I16.75 J0
G1 X41.969
G2 X51.387 Y14.474 I0 J-9.75
G1 X41.643 Y-21.891
G2 X19.668 Y-38.752 I-21.975 J5.888
G1 X-36.351
G3 X-37.664 Y-39.627 I0 J-1.422
G2 X-38.976 Y-40.502 I-1.313 J0.547
G1 X-41.969
G2 X-53.469 Y-29.002 I0 J11.5
G1 Y9.998
G2 X-34.969 Y28.498 I18.5 J0
G1 X41.969
G2 X53.077 Y14.021 I0 J-11.5
G1 X43.333 Y-22.343
G2 X19.668 Y-40.502 I-23.665 J6.341
G1 X-38.976
X-39.033 Y-40.497 Z-2.047 F500
X-39.088 Y-40.481 Z-2.036
X-39.132 Y-40.459 Z-2.003
X-39.171 Y-40.43 Z-1.971
X-39.216 Y-40.383 Z-1.874
X-39.229 Y-40.364 Z-1.759
G0 Z5
X13.168 Y-4.263
G1 Z0.741 F333.3
X13.189 Y-4.295 Z0.594
X13.244 Y-4.386 Z0.485
X13.307 Y-4.517 Z0.441
G2 X10.683 Y-5.628 Z0.291 I-1.312 J-0.555
X13.307 Y-4.517 Z0.141 I1.312 J0.555
X10.683 Y-5.628 Z-0.009 I-1.312 J-0.555
X13.307 Y-4.517 Z-0.159 I1.312 J0.555
X10.683 Y-5.628 Z-0.309 I-1.312 J-0.555
X13.307 Y-4.517 Z-0.459 I1.312 J0.555
X10.683 Y-5.628 Z-0.609 I-1.312 J-0.555
X13.307 Y-4.517 Z-0.759 I1.312 J0.555
X10.683 Y-5.628 Z-0.909 I-1.312 J-0.555
X13.307 Y-4.517 Z-1.059 I1.312 J0.555
X10.683 Y-5.628 Z-1.209 I-1.312 J-0.555
X13.307 Y-4.517 Z-1.359 I1.312 J0.555
X10.683 Y-5.628 Z-1.509 I-1.312 J-0.555
X13.307 Y-4.517 Z-1.659 I1.312 J0.555
X10.683 Y-5.628 Z-1.809 I-1.312 J-0.555
X13.307 Y-4.517 Z-1.959 I1.312 J0.555
X10.683 Y-5.628 Z-2.109 I-1.312 J-0.555
X13.307 Y-4.517 Z-2.259 I1.312 J0.555
X11.995 Y-6.497 Z-2.353 I-1.312 J-0.555
G1 X-19.145 F1000
G2 X-19.464 Y-6.178 I0 J0.319
G1 Y-5.827
G2 X-19.145 Y-5.507 I0.319 J0
G1 X12.33
G2 X12.56 Y-5.807 I0 J-0.238
G1 X12.465 Y-6.16
G2 X12.026 Y-6.497 I-0.439 J0.118
G1 X11.995
G3 X10.72 Y-7.347 I0 J-1.381
G2 X9.445 Y-8.197 I-1.275 J0.531
G1 X-20.845
G2 X-21.164 Y-7.878 I0 J0.319
G1 Y-4.127
G2 X-20.845 Y-3.807 I0.319 J0
G1 X14.546
G2 X14.775 Y-4.107 I0 J-0.238
G1 X13.77 Y-7.86
G2 X13.33 Y-8.197 I-0.439 J0.118
G1 X9.445
G3 X8.17 Y-9.047 I0 J-1.381
G2 X6.895 Y-9.897 I-1.275 J0.531
G1 X-22.545
G2 X-22.864 Y-9.578 I0 J0.319
G1 Y-2.427
G2 X-22.545 Y-2.107 I0.319 J0
G1 X16.761
G2 X16.991 Y-2.407 I0 J-0.238
G1 X15.074 Y-9.56
G2 X14.635 Y-9.897 I-0.439 J0.118
G1 X6.895
G3 X5.62 Y-10.747 I0 J-1.381
G2 X4.345 Y-11.597 I-1.275 J0.531
G1 X-24.245
G2 X-24.564 Y-11.278 I0 J0.319
G1 Y-0.727
G2 X-24.245 Y-0.407 I0.319 J0
G1 X18.977
G2 X19.206 Y-0.707 I0 J-0.238
G1 X16.378 Y-11.26
G2 X15.939 Y-11.597 I-0.439 J0.118
G1 X4.345
G3 X3.07 Y-12.447 I0 J-1.381
G2 X1.795 Y-13.297 I-1.275 J0.531
G1 X-25.945
G2 X-26.264 Y-12.978 I0 J0.319
G1 Y0.973
G2 X-25.945 Y1.293 I0.319 J0
G1 X21.192
G2 X21.422 Y0.993 I0 J-0.238
G1 X17.683 Y-12.96
G2 X17.244 Y-13.297 I-0.439 J0.118
G1 X1.795
G3 X0.52 Y-14.147 I0 J-1.381
G2 X-0.755 Y-14.997 I-1.275 J0.531
G1 X-27.645
G2 X-27.964 Y-14.678 I0 J0.319
G1 Y2.673
G2 X-27.645 Y2.993 I0.319 J0
G1 X23.408
G2 X23.637 Y2.693 I0 J-0.238
G1 X18.987 Y-14.66
G2 X18.548 Y-14.997 I-0.439 J0.118
G1 X-0.755
G3 X-2.01 Y-15.835 I0 J-1.359
G2 X-3.266 Y-16.673 I-1.257 J0.523
G1 X-29.345 Y-16.697
G2 X-29.664 Y-16.378 I0 J0.319
G1 Y4.373
G2 X-29.345 Y4.693 I0.319 J0
G1 X25.623
G2 X25.853 Y4.393 I0 J-0.238
G1 X20.296 Y-16.171
G2 X19.668 Y-16.652 I-0.628 J0.168
G1 X-3.266 Y-16.673
G3 X-4.539 Y-17.524 I0.001 J-1.381
G2 X-5.813 Y-18.375 I-1.275 J0.53
G1 X-31.045 Y-18.397
G2 X-31.364 Y-18.078 I0 J0.319
G1 Y6.073
G2 X-31.045 Y6.393 I0.319 J0
G1 X27.838
G2 X28.068 Y6.093 I0 J-0.238
G1 X21.938 Y-16.611
G2 X19.668 Y-18.352 I-2.27 J0.608
G1 X-5.813 Y-18.375
G3 X-7.087 Y-19.226 I0.001 J-1.381
G2 X-8.36 Y-20.076 I-1.275 J0.53
G1 X-32.745 Y-20.097
G2 X-33.064 Y-19.778 I0 J0.319
G1 Y7.773
G2 X-32.745 Y8.093 I0.319 J0
G1 X30.054
G2 X30.284 Y7.793 I0 J-0.238
G1 X23.58 Y-17.051
G2 X19.668 Y-20.052 I-3.912 J1.048
G1 X-8.36 Y-20.076
G3 X-9.634 Y-20.927 I0.001 J-1.381
G2 X-10.908 Y-21.778 I-1.275 J0.53
G1 X-34.445 Y-21.797
G2 X-34.764 Y-21.478 I0 J0.319
G1 Y9.473
G2 X-34.445 Y9.793 I0.319 J0
G1 X32.269
G2 X32.499 Y9.493 I0 J-0.238
G1 X25.222 Y-17.491
G2 X19.668 Y-21.752 I-5.554 J1.488
G1 X-10.908 Y-21.778
G3 X-12.182 Y-22.628 I0.001 J-1.381
G2 X-13.455 Y-23.479 I-1.275 J0.53
G1 X-36.145 Y-23.497
G2 X-36.464 Y-23.178 I0 J0.319
G1 X-36.419 Y9.998
G2 X-34.969 Y11.448 I1.45 J0
G1 X34.485 Y11.493
G2 X34.715 Y11.193 I0 J-0.238
G1 X26.864 Y-17.931
G2 X19.668 Y-23.452 I-7.196 J1.928
G1 X-13.455 Y-23.479
G3 X-14.729 Y-24.33 I0.001 J-1.381
G2 X-16.003 Y-25.18 I-1.275 J0.53
G1 X-37.845 Y-25.197
G2 X-38.164 Y-24.878 I0 J0.319
G1 X-38.119 Y9.998
G2 X-34.969 Y13.148 I3.15 J0
G1 X36.7 Y13.193
G2 X36.93 Y12.893 I0 J-0.238
G1 X28.506 Y-18.371
G2 X19.668 Y-25.152 I-8.838 J2.368
G1 X-16.003 Y-25.18
G3 X-17.276 Y-26.031 I0.001 J-1.381
G2 X-18.55 Y-26.881 I-1.275 J0.53
G1 X-39.545 Y-26.897
G2 X-39.864 Y-26.578 I0 J0.319
G1 X-39.819 Y9.998
G2 X-34.969 Y14.848 I4.85 J0
G1 X38.916 Y14.893
G2 X39.146 Y14.593 I0 J-0.238
G1 X30.149 Y-18.811
G2 X19.668 Y-26.852 I-10.48 J2.808
G1 X-18.55 Y-26.881
G3 X-19.824 Y-27.732 I0.001 J-1.381
G2 X-21.098 Y-28.583 I-1.275 J0.53
G1 X-41.245 Y-28.597
G2 X-41.564 Y-28.278 I0 J0.319
G1 X-41.519 Y9.998
G2 X-34.969 Y16.548 I6.55 J0
G1 X41.131 Y16.593
G2 X41.361 Y16.293 I0 J-0.238
G1 X31.791 Y-19.251
G2 X19.668 Y-28.552 I-12.122 J3.248
G1 X-21.098 Y-28.583
G3 X-22.349 Y-29.417 I0.001 J-1.357
G2 X-23.601 Y-30.252 I-1.252 J0.521
G1 X-41.969
G2 X-43.219 Y-29.002 I0 J1.25
G1 Y9.998
G2 X-34.969 Y18.248 I8.25 J0
G1 X41.969
G2 X43.176 Y16.674 I0 J-1.25
G1 X33.433 Y-19.691
G2 X19.668 Y-30.252 I-13.764 J3.688
G1 X-23.601
G3 X-24.876 Y-31.102 I0 J-1.381
G2 X-26.151 Y-31.952 I-1.275 J0.531
G1 X-41.969
G2 X-44.919 Y-29.002 I0 J2.95
G1 Y9.998
G2 X-34.969 Y19.948 I9.95 J0
G1 X41.969
G2 X44.819 Y16.234 I0 J-2.95
G1 X35.075 Y-20.131
G2 X19.668 Y-31.952 I-15.407 J4.128
G1 X-26.151
G3 X-27.426 Y-32.802 I0 J-1.381
G2 X-28.701 Y-33.652 I-1.275 J0.531
G1 X-41.969
G2 X-46.619 Y-29.002 I0 J4.65
G1 Y9.998
G2 X-34.969 Y21.648 I11.65 J0
G1 X41.969
G2 X46.461 Y15.794 I0 J-4.65
G1 X36.717 Y-20.571
G2 X19.668 Y-33.652 I-17.049 J4.568
G1 X-28.701
G3 X-29.976 Y-34.502 I0 J-1.381
G2 X-31.251 Y-35.352 I-1.275 J0.531
G1 X-41.969
G2 X-48.319 Y-29.002 I0 J6.35
G1 Y9.998
G2 X-34.969 Y23.348 I13.35 J0
G1 X41.969
G2 X48.103 Y15.354 I0 J-6.35
G1 X38.359 Y-21.011
G2 X19.668 Y-35.352 I-18.691 J5.008
G1 X-31.251
G3 X-32.526 Y-36.202 I0 J-1.381
G2 X-33.801 Y-37.052 I-1.275 J0.531
G1 X-41.969
G2 X-50.019 Y-29.002 I0 J8.05
G1 Y9.998
G2 X-34.969 Y25.048 I15.05 J0
G1 X41.969
G2 X49.745 Y14.914 I0 J-8.05
G1 X40.001 Y-21.451
G2 X19.668 Y-37.052 I-20.333 J5.448
G1 X-33.801
G3 X-35.076 Y-37.902 I0 J-1.381
G2 X-36.351 Y-38.752 I-1.275 J0.531
G1 X-41.969
G2 X-51.719 Y-29.002 I0 J9.75
G1 Y9.998
G2 X-34.969 Y26.748 I16.75 J0
G1 X41.969
G2 X51.387 Y14.474 I0 J-9.75
G1 X41.643 Y-21.891
G2 X19.668 Y-38.752 I-21.975 J5.888
G1 X-36.351
G3 X-37.664 Y-39.627 I0 J-1.422
G2 X-38.976 Y-40.502 I-1.313 J0.547
G1 X-41.969
G2 X-53.469 Y-29.002 I0 J11.5
G1 Y9.998
G2 X-34.969 Y28.498 I18.5 J0
G1 X41.969
G2 X53.077 Y14.021 I0 J-11.5
G1 X43.333 Y-22.343
G2 X19.668 Y-40.502 I-23.665 J6.341
G1 X-38.976
X-39.033 Y-40.497 Z-2.342 F500
X-39.088 Y-40.481 Z-2.33
X-39.132 Y-40.459 Z-2.298
X-39.171 Y-40.43 Z-2.265
X-39.216 Y-40.383 Z-2.168
X-39.229 Y-40.364 Z-2.053
G0 Z5
X13.168 Y-4.263
G1 Z0.447 F333.3
X13.189 Y-4.295 Z0.3
X13.244 Y-4.386 Z0.19
X13.307 Y-4.517 Z0.147
G2 X10.683 Y-5.628 Z-0.003 I-1.312 J-0.555
X13.307 Y-4.517 Z-0.153 I1.312 J0.555
X10.683 Y-5.628 Z-0.303 I-1.312 J-0.555
X13.307 Y-4.517 Z-0.453 I1.312 J0.555
X10.683 Y-5.628 Z-0.603 I-1.312 J-0.555
X13.307 Y-4.517 Z-0.753 I1.312 J0.555
X10.683 Y-5.628 Z-0.903 I-1.312 J-0.555
X13.307 Y-4.517 Z-1.053 I1.312 J0.555
X10.683 Y-5.628 Z-1.203 I-1.312 J-0.555
X13.307 Y-4.517 Z-1.353 I1.312 J0.555
X10.683 Y-5.628 Z-1.503 I-1.312 J-0.555
X13.307 Y-4.517 Z-1.653 I1.312 J0.555
X10.683 Y-5.628 Z-1.803 I-1.312 J-0.555
X13.307 Y-4.517 Z-1.953 I1.312 J0.555
X10.683 Y-5.628 Z-2.103 I-1.312 J-0.555
X13.307 Y-4.517 Z-2.253 I1.312 J0.555
X10.683 Y-5.628 Z-2.403 I-1.312 J-0.555
X13.307 Y-4.517 Z-2.553 I1.312 J0.555
X11.995 Y-6.497 Z-2.647 I-1.312 J-0.555
G1 X-19.145 F1000
G2 X-19.464 Y-6.178 I0 J0.319
G1 Y-5.827
G2 X-19.145 Y-5.507 I0.319 J0
G1 X12.33
G2 X12.56 Y-5.807 I0 J-0.238
G1 X12.465 Y-6.16
G2 X12.026 Y-6.497 I-0.439 J0.118
G1 X11.995
G3 X10.72 Y-7.347 I0 J-1.381
G2 X9.445 Y-8.197 I-1.275 J0.531
G1 X-20.845
G2 X-21.164 Y-7.878 I0 J0.319
G1 Y-4.127
G2 X-20.845 Y-3.807 I0.319 J0
G1 X14.546
G2 X14.775 Y-4.107 I0 J-0.238
G1 X13.77 Y-7.86
G2 X13.33 Y-8.197 I-0.439 J0.118
G1 X9.445
G3 X8.17 Y-9.047 I0 J-1.381
G2 X6.895 Y-9.897 I-1.275 J0.531
G1 X-22.545
G2 X-22.864 Y-9.578 I0 J0.319
G1 Y-2.427
G2 X-22.545 Y-2.107 I0.319 J0
G1 X16.761
G2 X16.991 Y-2.407 I0 J-0.238
G1 X15.074 Y-9.56
G2 X14.635 Y-9.897 I-0.439 J0.118
G1 X6.895
G3 X5.62 Y-10.747 I0 J-1.381
G2 X4.345 Y-11.597 I-1.275 J0.531
G1 X-24.245
G2 X-24.564 Y-11.278 I0 J0.319
G1 Y-0.727
G2 X-24.245 Y-0.407 I0.319 J0
G1 X18.977
G2 X19.206 Y-0.707 I0 J-0.238
G1 X16.378 Y-11.26
G2 X15.939 Y-11.597 I-0.439 J0.118
G1 X4.345
G3 X3.07 Y-12.447 I0 J-1.381
G2 X1.795 Y-13.297 I-1.275 J0.531
G1 X-25.945
G2 X-26.264 Y-12.978 I0 J0.319
G1 Y0.973
G2 X-25.945 Y1.293 I0.319 J0
G1 X21.192
G2 X21.422 Y0.993 I0 J-0.238
G1 X17.683 Y-12.96
G2 X17.244 Y-13.297 I-0.439 J0.118
G1 X1.795
G3 X0.52 Y-14.147 I0 J-1.381
G2 X-0.755 Y-14.997 I-1.275 J0.531
G1 X-27.645
G2 X-27.964 Y-14.678 I0 J0.319
G1 Y2.673
G2 X-27.645 Y2.993 I0.319 J0
G1 X23.408
G2 X23.637 Y2.693 I0 J-0.238
G1 X18.987 Y-14.66
G2 X18.548 Y-14.997 I-0.439 J0.118
G1 X-0.755
G3 X-2.01 Y-15.835 I0 J-1.359
G2 X-3.266 Y-16.673 I-1.257 J0.523
G1 X-29.345 Y-16.697
G2 X-29.664 Y-16.378 I0 J0.319
G1 Y4.373
G2 X-29.345 Y4.693 I0.319 J0
G1 X25.623
G2 X25.853 Y4.393 I0 J-0.238
G1 X20.296 Y-16.171
G2 X19.668 Y-16.652 I-0.628 J0.168
G1 X-3.266 Y-16.673
G3 X-4.539 Y-17.524 I0.001 J-1.381
G2 X-5.813 Y-18.375 I-1.275 J0.53
G1 X-31.045 Y-18.397
G2 X-31.364 Y-18.078 I0 J0.319
G1 Y6.073
G2 X-31.045 Y6.393 I0.319 J0
G1 X27.838
G2 X28.068 Y6.093 I0 J-0.238
G1 X21.938 Y-16.611
G2 X19.668 Y-18.352 I-2.27 J0.608
G1 X-5.813 Y-18.375
G3 X-7.087 Y-19.226 I0.001 J-1.381
G2 X-8.36 Y-20.076 I-1.275 J0.53
G1 X-32.745 Y-20.097
G2 X-33.064 Y-19.778 I0 J0.319
G1 Y7.773
G2 X-32.745 Y8.093 I0.319 J0
G1 X30.054
G2 X30.284 Y7.793 I0 J-0.238
G1 X23.58 Y-17.051
G2 X19.668 Y-20.052 I-3.912 J1.048
G1 X-8.36 Y-20.076
G3 X-9.634 Y-20.927 I0.001 J-1.381
G2 X-10.908 Y-21.778 I-1.275 J0.53
G1 X-34.445 Y-21.797
G2 X-34.764 Y-21.478 I0 J0.319
G1 Y9.473
G2 X-34.445 Y9.793 I0.319 J0
G1 X32.269
G2 X32.499 Y9.493 I0 J-0.238
G1 X25.222 Y-17.491
G2 X19.668 Y-21.752 I-5.554 J1.488
G1 X-10.908 Y-21.778
G3 X-12.182 Y-22.628 I0.001 J-1.381
G2 X-13.455 Y-23.479 I-1.275 J0.53
G1 X-36.145 Y-23.497
G2 X-36.464 Y-23.178 I0 J0.319
G1 X-36.419 Y9.998
G2 X-34.969 Y11.448 I1.45 J0
G1 X34.485 Y11.493
G2 X34.715 Y11.193 I0 J-0.238
G1 X26.864 Y-17.931
G2 X19.668 Y-23.452 I-7.196 J1.928
G1 X-13.455 Y-23.479
G3 X-14.729 Y-24.33 I0.001 J-1.381
G2 X-16.003 Y-25.18 I-1.275 J0.53
G1 X-37.845 Y-25.197
G2 X-38.164 Y-24.878 I0 J0.319
G1 X-38.119 Y9.998
G2 X-34.969 Y13.148 I3.15 J0
G1 X36.7 Y13.193
G2 X36.93 Y12.893 I0 J-0.238
G1 X28.506 Y-18.371
G2 X19.668 Y-25.152 I-8.838 J2.368
G1 X-16.003 Y-25.18
G3 X-17.276 Y-26.031 I0.001 J-1.381
G2 X-18.55 Y-26.881 I-1.275 J0.53
G1 X-39.545 Y-26.897
G2 X-39.864 Y-26.578 I0 J0.319
G1 X-39.819 Y9.998
G2 X-34.969 Y14.848 I4.85 J0
G1 X38.916 Y14.893
G2 X39.146 Y14.593 I0 J-0.238
G1 X30.149 Y-18.811
G2 X19.668 Y-26.852 I-10.48 J2.808
G1 X-18.55 Y-26.881
G3 X-19.824 Y-27.732 I0.001 J-1.381
G2 X-21.098 Y-28.583 I-1.275 J0.53
G1 X-41.245 Y-28.597
G2 X-41.564 Y-28.278 I0 J0.319
G1 X-41.519 Y9.998
G2 X-34.969 Y16.548 I6.55 J0
G1 X41.131 Y16.593
G2 X41.361 Y16.293 I0 J-0.238
G1 X31.791 Y-19.251
G2 X19.668 Y-28.552 I-12.122 J3.248
G1 X-21.098 Y-28.583
G3 X-22.349 Y-29.417 I0.001 J-1.357
G2 X-23.601 Y-30.252 I-1.252 J0.521
G1 X-41.969
G2 X-43.219 Y-29.002 I0 J1.25
G1 Y9.998
G2 X-34.969 Y18.248 I8.25 J0
G1 X41.969
G2 X43.176 Y16.674 I0 J-1.25
G1 X33.433 Y-19.691
G2 X19.668 Y-30.252 I-13.764 J3.688
G1 X-23.601
G3 X-24.876 Y-31.102 I0 J-1.381
G2 X-26.151 Y-31.952 I-1.275 J0.531
G1 X-41.969
G2 X-44.919 Y-29.002 I0 J2.95
G1 Y9.998
G2 X-34.969 Y19.948 I9.95 J0
G1 X41.969
G2 X44.819 Y16.234 I0 J-2.95
G1 X35.075 Y-20.131
G2 X19.668 Y-31.952 I-15.407 J4.128
G1 X-26.151
G3 X-27.426 Y-32.802 I0 J-1.381
G2 X-28.701 Y-33.652 I-1.275 J0.531
G1 X-41.969
G2 X-46.619 Y-29.002 I0 J4.65
G1 Y9.998
G2 X-34.969 Y21.648 I11.65 J0
G1 X41.969
G2 X46.461 Y15.794 I0 J-4.65
G1 X36.717 Y-20.571
G2 X19.668 Y-33.652 I-17.049 J4.568
G1 X-28.701
G3 X-29.976 Y-34.502 I0 J-1.381
G2 X-31.251 Y-35.352 I-1.275 J0.531
G1 X-41.969
G2 X-48.319 Y-29.002 I0 J6.35
G1 Y9.998
G2 X-34.969 Y23.348 I13.35 J0
G1 X41.969
G2 X48.103 Y15.354 I0 J-6.35
G1 X38.359 Y-21.011
G2 X19.668 Y-35.352 I-18.691 J5.008
G1 X-31.251
G3 X-32.526 Y-36.202 I0 J-1.381
G2 X-33.801 Y-37.052 I-1.275 J0.531
G1 X-41.969
G2 X-50.019 Y-29.002 I0 J8.05
G1 Y9.998
G2 X-34.969 Y25.048 I15.05 J0
G1 X41.969
G2 X49.745 Y14.914 I0 J-8.05
G1 X40.001 Y-21.451
G2 X19.668 Y-37.052 I-20.333 J5.448
G1 X-33.801
G3 X-35.076 Y-37.902 I0 J-1.381
G2 X-36.351 Y-38.752 I-1.275 J0.531
G1 X-41.969
G2 X-51.719 Y-29.002 I0 J9.75
G1 Y9.998
G2 X-34.969 Y26.748 I16.75 J0
G1 X41.969
G2 X51.387 Y14.474 I0 J-9.75
G1 X41.643 Y-21.891
G2 X19.668 Y-38.752 I-21.975 J5.888
G1 X-36.351
G3 X-37.664 Y-39.627 I0 J-1.422
G2 X-38.976 Y-40.502 I-1.313 J0.547
G1 X-41.969
G2 X-53.469 Y-29.002 I0 J11.5
G1 Y9.998
G2 X-34.969 Y28.498 I18.5 J0
G1 X41.969
G2 X53.077 Y14.021 I0 J-11.5
G1 X43.333 Y-22.343
G2 X19.668 Y-40.502 I-23.665 J6.341
G1 X-38.976
X-39.033 Y-40.497 Z-2.636 F500
X-39.088 Y-40.481 Z-2.624
X-39.132 Y-40.459 Z-2.592
X-39.171 Y-40.43 Z-2.559
X-39.216 Y-40.383 Z-2.462
X-39.229 Y-40.364 Z-2.347
G0 Z5
X13.168 Y-4.263
G1 Z0.153 F333.3
X13.189 Y-4.295 Z0.006
X13.244 Y-4.386 Z-0.104
X13.307 Y-4.517 Z-0.147
G2 X10.683 Y-5.628 Z-0.297 I-1.312 J-0.555
X13.307 Y-4.517 Z-0.447 I1.312 J0.555
X10.683 Y-5.628 Z-0.597 I-1.312 J-0.555
X13.307 Y-4.517 Z-0.747 I1.312 J0.555
X10.683 Y-5.628 Z-0.897 I-1.312 J-0.555
X13.307 Y-4.517 Z-1.047 I1.312 J0.555
X10.683 Y-5.628 Z-1.197 I-1.312 J-0.555
X13.307 Y-4.517 Z-1.347 I1.312 J0.555
X10.683 Y-5.628 Z-1.497 I-1.312 J-0.555
X13.307 Y-4.517 Z-1.647 I1.312 J0.555
X10.683 Y-5.628 Z-1.797 I-1.312 J-0.555
X13.307 Y-4.517 Z-1.947 I1.312 J0.555
X10.683 Y-5.628 Z-2.097 I-1.312 J-0.555
X13.307 Y-4.517 Z-2.247 I1.312 J0.555
X10.683 Y-5.628 Z-2.397 I-1.312 J-0.555
X13.307 Y-4.517 Z-2.547 I1.312 J0.555
X10.683 Y-5.628 Z-2.697 I-1.312 J-0.555
X13.307 Y-4.517 Z-2.847 I1.312 J0.555
X11.995 Y-6.497 Z-2.941 I-1.312 J-0.555
G1 X-19.145 F1000
G2 X-19.464 Y-6.178 I0 J0.319
G1 Y-5.827
G2 X-19.145 Y-5.507 I0.319 J0
G1 X12.33
G2 X12.56 Y-5.807 I0 J-0.238
G1 X12.465 Y-6.16
G2 X12.026 Y-6.497 I-0.439 J0.118
G1 X11.995
G3 X10.72 Y-7.347 I0 J-1.381
G2 X9.445 Y-8.197 I-1.275 J0.531
G1 X-20.845
G2 X-21.164 Y-7.878 I0 J0.319
G1 Y-4.127
G2 X-20.845 Y-3.807 I0.319 J0
G1 X14.546
G2 X14.775 Y-4.107 I0 J-0.238
G1 X13.77 Y-7.86
G2 X13.33 Y-8.197 I-0.439 J0.118
G1 X9.445
G3 X8.17 Y-9.047 I0 J-1.381
G2 X6.895 Y-9.897 I-1.275 J0.531
G1 X-22.545
G2 X-22.864 Y-9.578 I0 J0.319
G1 Y-2.427
G2 X-22.545 Y-2.107 I0.319 J0
G1 X16.761
G2 X16.991 Y-2.407 I0 J-0.238
G1 X15.074 Y-9.56
G2 X14.635 Y-9.897 I-0.439 J0.118
G1 X6.895
G3 X5.62 Y-10.747 I0 J-1.381
G2 X4.345 Y-11.597 I-1.275 J0.531
G1 X-24.245
G2 X-24.564 Y-11.278 I0 J0.319
G1 Y-0.727
G2 X-24.245 Y-0.407 I0.319 J0
G1 X18.977
G2 X19.206 Y-0.707 I0 J-0.238
G1 X16.378 Y-11.26
G2 X15.939 Y-11.597 I-0.439 J0.118
G1 X4.345
G3 X3.07 Y-12.447 I0 J-1.381
G2 X1.795 Y-13.297 I-1.275 J0.531
G1 X-25.945
G2 X-26.264 Y-12.978 I0 J0.319
G1 Y0.973
G2 X-25.945 Y1.293 I0.319 J0
G1 X21.192
G2 X21.422 Y0.993 I0 J-0.238
G1 X17.683 Y-12.96
G2 X17.244 Y-13.297 I-0.439 J0.118
G1 X1.795
G3 X0.52 Y-14.147 I0 J-1.381
G2 X-0.755 Y-14.997 I-1.275 J0.531
G1 X-27.645
G2 X-27.964 Y-14.678 I0 J0.319
G1 Y2.673
G2 X-27.645 Y2.993 I0.319 J0
G1 X23.408
G2 X23.637 Y2.693 I0 J-0.238
G1 X18.987 Y-14.66
G2 X18.548 Y-14.997 I-0.439 J0.118
G1 X-0.755
G3 X-2.01 Y-15.835 I0 J-1.359
G2 X-3.266 Y-16.673 I-1.257 J0.523
G1 X-29.345 Y-16.697
G2 X-29.664 Y-16.378 I0 J0.319
G1 Y4.373
G2 X-29.345 Y4.693 I0.319 J0
G1 X25.623
G2 X25.853 Y4.393 I0 J-0.238
G1 X20.296 Y-16.171
G2 X19.668 Y-16.652 I-0.628 J0.168
G1 X-3.266 Y-16.673
G3 X-4.539 Y-17.524 I0.001 J-1.381
G2 X-5.813 Y-18.375 I-1.275 J0.53
G1 X-31.045 Y-18.397
G2 X-31.364 Y-18.078 I0 J0.319
G1 Y6.073
G2 X-31.045 Y6.393 I0.319 J0
G1 X27.838
G2 X28.068 Y6.093 I0 J-0.238
G1 X21.938 Y-16.611
G2 X19.668 Y-18.352 I-2.27 J0.608
G1 X-5.813 Y-18.375
G3 X-7.087 Y-19.226 I0.001 J-1.381
G2 X-8.36 Y-20.076 I-1.275 J0.53
G1 X-32.745 Y-20.097
G2 X-33.064 Y-19.778 I0 J0.319
G1 Y7.773
G2 X-32.745 Y8.093 I0.319 J0
G1 X30.054
G2 X30.284 Y7.793 I0 J-0.238
G1 X23.58 Y-17.051
G2 X19.668 Y-20.052 I-3.912 J1.048
G1 X-8.36 Y-20.076
G3 X-9.634 Y-20.927 I0.001 J-1.381
G2 X-10.908 Y-21.778 I-1.275 J0.53
G1 X-34.445 Y-21.797
G2 X-34.764 Y-21.478 I0 J0.319
G1 Y9.473
G2 X-34.445 Y9.793 I0.319 J0
G1 X32.269
G2 X32.499 Y9.493 I0 J-0.238
G1 X25.222 Y-17.491
G2 X19.668 Y-21.752 I-5.554 J1.488
G1 X-10.908 Y-21.778
G3 X-12.182 Y-22.628 I0.001 J-1.381
G2 X-13.455 Y-23.479 I-1.275 J0.53
G1 X-36.145 Y-23.497
G2 X-36.464 Y-23.178 I0 J0.319
G1 X-36.419 Y9.998
G2 X-34.969 Y11.448 I1.45 J0
G1 X34.485 Y11.493
G2 X34.715 Y11.193 I0 J-0.238
G1 X26.864 Y-17.931
G2 X19.668 Y-23.452 I-7.196 J1.928
G1 X-13.455 Y-23.479
G3 X-14.729 Y-24.33 I0.001 J-1.381
G2 X-16.003 Y-25.18 I-1.275 J0.53
G1 X-37.845 Y-25.197
G2 X-38.164 Y-24.878 I0 J0.319
G1 X-38.119 Y9.998
G2 X-34.969 Y13.148 I3.15 J0
G1 X36.7 Y13.193
G2 X36.93 Y12.893 I0 J-0.238
G1 X28.506 Y-18.371
G2 X19.668 Y-25.152 I-8.838 J2.368
G1 X-16.003 Y-25.18
G3 X-17.276 Y-26.031 I0.001 J-1.381
G2 X-18.55 Y-26.881 I-1.275 J0.53
G1 X-39.545 Y-26.897
G2 X-39.864 Y-26.578 I0 J0.319
G1 X-39.819 Y9.998
G2 X-34.969 Y14.848 I4.85 J0
G1 X38.916 Y14.893
G2 X39.146 Y14.593 I0 J-0.238
G1 X30.149 Y-18.811
G2 X19.668 Y-26.852 I-10.48 J2.808
G1 X-18.55 Y-26.881
G3 X-19.824 Y-27.732 I0.001 J-1.381
G2 X-21.098 Y-28.583 I-1.275 J0.53
G1 X-41.245 Y-28.597
G2 X-41.564 Y-28.278 I0 J0.319
G1 X-41.519 Y9.998
G2 X-34.969 Y16.548 I6.55 J0
G1 X41.131 Y16.593
G2 X41.361 Y16.293 I0 J-0.238
G1 X31.791 Y-19.251
G2 X19.668 Y-28.552 I-12.122 J3.248
G1 X-21.098 Y-28.583
G3 X-22.349 Y-29.417 I0.001 J-1.357
G2 X-23.601 Y-30.252 I-1.252 J0.521
G1 X-41.969
G2 X-43.219 Y-29.002 I0 J1.25
G1 Y9.998
G2 X-34.969 Y18.248 I8.25 J0
G1 X41.969
G2 X43.176 Y16.674 I0 J-1.25
G1 X33.433 Y-19.691
G2 X19.668 Y-30.252 I-13.764 J3.688
G1 X-23.601
G3 X-24.876 Y-31.102 I0 J-1.381
G2 X-26.151 Y-31.952 I-1.275 J0.531
G1 X-41.969
G2 X-44.919 Y-29.002 I0 J2.95
G1 Y9.998
G2 X-34.969 Y19.948 I9.95 J0
G1 X41.969
G2 X44.819 Y16.234 I0 J-2.95
G1 X35.075 Y-20.131
G2 X19.668 Y-31.952 I-15.407 J4.128
G1 X-26.151
G3 X-27.426 Y-32.802 I0 J-1.381
G2 X-28.701 Y-33.652 I-1.275 J0.531
G1 X-41.969
G2 X-46.619 Y-29.002 I0 J4.65
G1 Y9.998
G2 X-34.969 Y21.648 I11.65 J0
G1 X41.969
G2 X46.461 Y15.794 I0 J-4.65
G1 X36.717 Y-20.571
G2 X19.668 Y-33.652 I-17.049 J4.568
G1 X-28.701
G3 X-29.976 Y-34.502 I0 J-1.381
G2 X-31.251 Y-35.352 I-1.275 J0.531
G1 X-41.969
G2 X-48.319 Y-29.002 I0 J6.35
G1 Y9.998
G2 X-34.969 Y23.348 I13.35 J0
G1 X41.969
G2 X48.103 Y15.354 I0 J-6.35
G1 X38.359 Y-21.011
G2 X19.668 Y-35.352 I-18.691 J5.008
G1 X-31.251
G3 X-32.526 Y-36.202 I0 J-1.381
G2 X-33.801 Y-37.052 I-1.275 J0.531
G1 X-41.969
G2 X-50.019 Y-29.002 I0 J8.05
G1 Y9.998
G2 X-34.969 Y25.048 I15.05 J0
G1 X41.969
G2 X49.745 Y14.914 I0 J-8.05
G1 X40.001 Y-21.451
G2 X19.668 Y-37.052 I-20.333 J5.448
G1 X-33.801
G3 X-35.076 Y-37.902 I0 J-1.381
G2 X-36.351 Y-38.752 I-1.275 J0.531
G1 X-41.969
G2 X-51.719 Y-29.002 I0 J9.75
G1 Y9.998
G2 X-34.969 Y26.748 I16.75 J0
G1 X41.969
G2 X51.387 Y14.474 I0 J-9.75
G1 X41.643 Y-21.891
G2 X19.668 Y-38.752 I-21.975 J5.888
G1 X-36.351
G3 X-37.664 Y-39.627 I0 J-1.422
G2 X-38.976 Y-40.502 I-1.313 J0.547
G1 X-41.969
G2 X-53.469 Y-29.002 I0 J11.5
G1 Y9.998
G2 X-34.969 Y28.498 I18.5 J0
G1 X41.969
G2 X53.077 Y14.021 I0 J-11.5
G1 X43.333 Y-22.343
G2 X19.668 Y-40.502 I-23.665 J6.341
G1 X-38.976
X-39.033 Y-40.497 Z-2.93 F500
X-39.088 Y-40.481 Z-2.918
X-39.132 Y-40.459 Z-2.886
X-39.171 Y-40.43 Z-2.853
X-39.216 Y-40.383 Z-2.756
X-39.229 Y-40.364 Z-2.641
G0 Z5
X13.168 Y-4.263
G1 Z0.075 F333.3
Z-0.141 F500
X13.189 Y-4.295 Z-0.288 F333.3
X13.244 Y-4.386 Z-0.398
X13.307 Y-4.517 Z-0.441
G2 X10.683 Y-5.628 Z-0.591 I-1.312 J-0.555
X13.307 Y-4.517 Z-0.741 I1.312 J0.555
X10.683 Y-5.628 Z-0.891 I-1.312 J-0.555
X13.307 Y-4.517 Z-1.041 I1.312 J0.555
X10.683 Y-5.628 Z-1.191 I-1.312 J-0.555
X13.307 Y-4.517 Z-1.341 I1.312 J0.555
X10.683 Y-5.628 Z-1.491 I-1.312 J-0.555
X13.307 Y-4.517 Z-1.641 I1.312 J0.555
X10.683 Y-5.628 Z-1.791 I-1.312 J-0.555
X13.307 Y-4.517 Z-1.941 I1.312 J0.555
X10.683 Y-5.628 Z-2.091 I-1.312 J-0.555
X13.307 Y-4.517 Z-2.241 I1.312 J0.555
X10.683 Y-5.628 Z-2.391 I-1.312 J-0.555
X13.307 Y-4.517 Z-2.541 I1.312 J0.555
X10.683 Y-5.628 Z-2.691 I-1.312 J-0.555
X13.307 Y-4.517 Z-2.841 I1.312 J0.555
X10.683 Y-5.628 Z-2.991 I-1.312 J-0.555
X13.307 Y-4.517 Z-3.141 I1.312 J0.555
X11.995 Y-6.497 Z-3.235 I-1.312 J-0.555
G1 X-19.145 F1000
G2 X-19.464 Y-6.178 I0 J0.319
G1 Y-5.827
G2 X-19.145 Y-5.507 I0.319 J0
G1 X12.33
G2 X12.56 Y-5.807 I0 J-0.238
G1 X12.465 Y-6.16
G2 X12.026 Y-6.497 I-0.439 J0.118
G1 X11.995
G3 X10.72 Y-7.347 I0 J-1.381
G2 X9.445 Y-8.197 I-1.275 J0.531
G1 X-20.845
G2 X-21.164 Y-7.878 I0 J0.319
G1 Y-4.127
G2 X-20.845 Y-3.807 I0.319 J0
G1 X14.546
G2 X14.775 Y-4.107 I0 J-0.238
G1 X13.77 Y-7.86
G2 X13.33 Y-8.197 I-0.439 J0.118
G1 X9.445
G3 X8.17 Y-9.047 I0 J-1.381
G2 X6.895 Y-9.897 I-1.275 J0.531
G1 X-22.545
G2 X-22.864 Y-9.578 I0 J0.319
G1 Y-2.427
G2 X-22.545 Y-2.107 I0.319 J0
G1 X16.761
G2 X16.991 Y-2.407 I0 J-0.238
G1 X15.074 Y-9.56
G2 X14.635 Y-9.897 I-0.439 J0.118
G1 X6.895
G3 X5.62 Y-10.747 I0 J-1.381
G2 X4.345 Y-11.597 I-1.275 J0.531
G1 X-24.245
G2 X-24.564 Y-11.278 I0 J0.319
G1 Y-0.727
G2 X-24.245 Y-0.407 I0.319 J0
G1 X18.977
G2 X19.206 Y-0.707 I0 J-0.238
G1 X16.378 Y-11.26
G2 X15.939 Y-11.597 I-0.439 J0.118
G1 X4.345
G3 X3.07 Y-12.447 I0 J-1.381
G2 X1.795 Y-13.297 I-1.275 J0.531
G1 X-25.945
G2 X-26.264 Y-12.978 I0 J0.319
G1 Y0.973
G2 X-25.945 Y1.293 I0.319 J0
G1 X21.192
G2 X21.422 Y0.993 I0 J-0.238
G1 X17.683 Y-12.96
G2 X17.244 Y-13.297 I-0.439 J0.118
G1 X1.795
G3 X0.52 Y-14.147 I0 J-1.381
G2 X-0.755 Y-14.997 I-1.275 J0.531
G1 X-27.645
G2 X-27.964 Y-14.678 I0 J0.319
G1 Y2.673
G2 X-27.645 Y2.993 I0.319 J0
G1 X23.408
G2 X23.637 Y2.693 I0 J-0.238
G1 X18.987 Y-14.66
G2 X18.548 Y-14.997 I-0.439 J0.118
G1 X-0.755
G3 X-2.01 Y-15.835 I0 J-1.359
G2 X-3.266 Y-16.673 I-1.257 J0.523
G1 X-29.345 Y-16.697
G2 X-29.664 Y-16.378 I0 J0.319
G1 Y4.373
G2 X-29.345 Y4.693 I0.319 J0
G1 X25.623
G2 X25.853 Y4.393 I0 J-0.238
G1 X20.296 Y-16.171
G2 X19.668 Y-16.652 I-0.628 J0.168
G1 X-3.266 Y-16.673
G3 X-4.539 Y-17.524 I0.001 J-1.381
G2 X-5.813 Y-18.375 I-1.275 J0.53
G1 X-31.045 Y-18.397
G2 X-31.364 Y-18.078 I0 J0.319
G1 Y6.073
G2 X-31.045 Y6.393 I0.319 J0
G1 X27.838
G2 X28.068 Y6.093 I0 J-0.238
G1 X21.938 Y-16.611
G2 X19.668 Y-18.352 I-2.27 J0.608
G1 X-5.813 Y-18.375
G3 X-7.087 Y-19.226 I0.001 J-1.381
G2 X-8.36 Y-20.076 I-1.275 J0.53
G1 X-32.745 Y-20.097
G2 X-33.064 Y-19.778 I0 J0.319
G1 Y7.773
G2 X-32.745 Y8.093 I0.319 J0
G1 X30.054
G2 X30.284 Y7.793 I0 J-0.238
G1 X23.58 Y-17.051
G2 X19.668 Y-20.052 I-3.912 J1.048
G1 X-8.36 Y-20.076
G3 X-9.634 Y-20.927 I0.001 J-1.381
G2 X-10.908 Y-21.778 I-1.275 J0.53
G1 X-34.445 Y-21.797
G2 X-34.764 Y-21.478 I0 J0.319
G1 Y9.473
G2 X-34.445 Y9.793 I0.319 J0
G1 X32.269
G2 X32.499 Y9.493 I0 J-0.238
G1 X25.222 Y-17.491
G2 X19.668 Y-21.752 I-5.554 J1.488
G1 X-10.908 Y-21.778
G3 X-12.182 Y-22.628 I0.001 J-1.381
G2 X-13.455 Y-23.479 I-1.275 J0.53
G1 X-36.145 Y-23.497
G2 X-36.464 Y-23.178 I0 J0.319
G1 X-36.419 Y9.998
G2 X-34.969 Y11.448 I1.45 J0
G1 X34.485 Y11.493
G2 X34.715 Y11.193 I0 J-0.238
G1 X26.864 Y-17.931
G2 X19.668 Y-23.452 I-7.196 J1.928
G1 X-13.455 Y-23.479
G3 X-14.729 Y-24.33 I0.001 J-1.381
G2 X-16.003 Y-25.18 I-1.275 J0.53
G1 X-37.845 Y-25.197
G2 X-38.164 Y-24.878 I0 J0.319
G1 X-38.119 Y9.998
G2 X-34.969 Y13.148 I3.15 J0
G1 X36.7 Y13.193
G2 X36.93 Y12.893 I0 J-0.238
G1 X28.506 Y-18.371
G2 X19.668 Y-25.152 I-8.838 J2.368
G1 X-16.003 Y-25.18
G3 X-17.276 Y-26.031 I0.001 J-1.381
G2 X-18.55 Y-26.881 I-1.275 J0.53
G1 X-39.545 Y-26.897
G2 X-39.864 Y-26.578 I0 J0.319
G1 X-39.819 Y9.998
G2 X-34.969 Y14.848 I4.85 J0
G1 X38.916 Y14.893
G2 X39.146 Y14.593 I0 J-0.238
G1 X30.149 Y-18.811
G2 X19.668 Y-26.852 I-10.48 J2.808
G1 X-18.55 Y-26.881
G3 X-19.824 Y-27.732 I0.001 J-1.381
G2 X-21.098 Y-28.583 I-1.275 J0.53
G1 X-41.245 Y-28.597
G2 X-41.564 Y-28.278 I0 J0.319
G1 X-41.519 Y9.998
G2 X-34.969 Y16.548 I6.55 J0
G1 X41.131 Y16.593
G2 X41.361 Y16.293 I0 J-0.238
G1 X31.791 Y-19.251
G2 X19.668 Y-28.552 I-12.122 J3.248
G1 X-21.098 Y-28.583
G3 X-22.349 Y-29.417 I0.001 J-1.357
G2 X-23.601 Y-30.252 I-1.252 J0.521
G1 X-41.969
G2 X-43.219 Y-29.002 I0 J1.25
G1 Y9.998
G2 X-34.969 Y18.248 I8.25 J0
G1 X41.969
G2 X43.176 Y16.674 I0 J-1.25
G1 X33.433 Y-19.691
G2 X19.668 Y-30.252 I-13.764 J3.688
G1 X-23.601
G3 X-24.876 Y-31.102 I0 J-1.381
G2 X-26.151 Y-31.952 I-1.275 J0.531
G1 X-41.969
G2 X-44.919 Y-29.002 I0 J2.95
G1 Y9.998
G2 X-34.969 Y19.948 I9.95 J0
G1 X41.969
G2 X44.819 Y16.234 I0 J-2.95
G1 X35.075 Y-20.131
G2 X19.668 Y-31.952 I-15.407 J4.128
G1 X-26.151
G3 X-27.426 Y-32.802 I0 J-1.381
G2 X-28.701 Y-33.652 I-1.275 J0.531
G1 X-41.969
G2 X-46.619 Y-29.002 I0 J4.65
G1 Y9.998
G2 X-34.969 Y21.648 I11.65 J0
G1 X41.969
G2 X46.461 Y15.794 I0 J-4.65
G1 X36.717 Y-20.571
G2 X19.668 Y-33.652 I-17.049 J4.568
G1 X-28.701
G3 X-29.976 Y-34.502 I0 J-1.381
G2 X-31.251 Y-35.352 I-1.275 J0.531
G1 X-41.969
G2 X-48.319 Y-29.002 I0 J6.35
G1 Y9.998
G2 X-34.969 Y23.348 I13.35 J0
G1 X41.969
G2 X48.103 Y15.354 I0 J-6.35
G1 X38.359 Y-21.011
G2 X19.668 Y-35.352 I-18.691 J5.008
G1 X-31.251
G3 X-32.526 Y-36.202 I0 J-1.381
G2 X-33.801 Y-37.052 I-1.275 J0.531
G1 X-41.969
G2 X-50.019 Y-29.002 I0 J8.05
G1 Y9.998
G2 X-34.969 Y25.048 I15.05 J0
G1 X41.969
G2 X49.745 Y14.914 I0 J-8.05
G1 X40.001 Y-21.451
G2 X19.668 Y-37.052 I-20.333 J5.448
G1 X-33.801
G3 X-35.076 Y-37.902 I0 J-1.381
G2 X-36.351 Y-38.752 I-1.275 J0.531
G1 X-41.969
G2 X-51.719 Y-29.002 I0 J9.75
G1 Y9.998
G2 X-34.969 Y26.748 I16.75 J0
G1 X41.969
G2 X51.387 Y14.474 I0 J-9.75
G1 X41.643 Y-21.891
G2 X19.668 Y-38.752 I-21.975 J5.888
G1 X-36.351
G3 X-37.664 Y-39.627 I0 J-1.422
G2 X-38.976 Y-40.502 I-1.313 J0.547
G1 X-41.969
G2 X-53.469 Y-29.002 I0 J11.5
G1 Y9.998
G2 X-34.969 Y28.498 I18.5 J0
G1 X41.969
G2 X53.077 Y14.021 I0 J-11.5
G1 X43.333 Y-22.343
G2 X19.668 Y-40.502 I-23.665 J6.341
G1 X-38.976
X-39.033 Y-40.497 Z-3.224 F500
X-39.088 Y-40.481 Z-3.212
X-39.132 Y-40.459 Z-3.18
X-39.171 Y-40.43 Z-3.147
X-39.216 Y-40.383 Z-3.05
X-39.229 Y-40.364 Z-2.935
G0 Z5
X13.168 Y-4.263
G1 Z-0.06 F333.3
Z-0.435 F500
X13.189 Y-4.295 Z-0.583 F333.3
X13.244 Y-4.386 Z-0.692
X13.307 Y-4.517 Z-0.735
G2 X10.683 Y-5.628 Z-0.885 I-1.312 J-0.555
X13.307 Y-4.517 Z-1.035 I1.312 J0.555
X10.683 Y-5.628 Z-1.185 I-1.312 J-0.555
X13.307 Y-4.517 Z-1.335 I1.312 J0.555
X10.683 Y-5.628 Z-1.485 I-1.312 J-0.555
X13.307 Y-4.517 Z-1.635 I1.312 J0.555
X10.683 Y-5.628 Z-1.785 I-1.312 J-0.555
X13.307 Y-4.517 Z-1.935 I1.312 J0.555
X10.683 Y-5.628 Z-2.085 I-1.312 J-0.555
X13.307 Y-4.517 Z-2.235 I1.312 J0.555
X10.683 Y-5.628 Z-2.385 I-1.312 J-0.555
X13.307 Y-4.517 Z-2.535 I1.312 J0.555
X10.683 Y-5.628 Z-2.685 I-1.312 J-0.555
X13.307 Y-4.517 Z-2.835 I1.312 J0.555
X10.683 Y-5.628 Z-2.985 I-1.312 J-0.555
X13.307 Y-4.517 Z-3.135 I1.312 J0.555
X10.683 Y-5.628 Z-3.285 I-1.312 J-0.555
X13.307 Y-4.517 Z-3.435 I1.312 J0.555
X11.995 Y-6.497 Z-3.529 I-1.312 J-0.555
G1 X-19.145 F1000
G2 X-19.464 Y-6.178 I0 J0.319
G1 Y-5.827
G2 X-19.145 Y-5.507 I0.319 J0
G1 X12.33
G2 X12.56 Y-5.807 I0 J-0.238
G1 X12.465 Y-6.16
G2 X12.026 Y-6.497 I-0.439 J0.118
G1 X11.995
G3 X10.72 Y-7.347 I0 J-1.381
G2 X9.445 Y-8.197 I-1.275 J0.531
G1 X-20.845
G2 X-21.164 Y-7.878 I0 J0.319
G1 Y-4.127
G2 X-20.845 Y-3.807 I0.319 J0
G1 X14.546
G2 X14.775 Y-4.107 I0 J-0.238
G1 X13.77 Y-7.86
G2 X13.33 Y-8.197 I-0.439 J0.118
G1 X9.445
G3 X8.17 Y-9.047 I0 J-1.381
G2 X6.895 Y-9.897 I-1.275 J0.531
G1 X-22.545
G2 X-22.864 Y-9.578 I0 J0.319
G1 Y-2.427
G2 X-22.545 Y-2.107 I0.319 J0
G1 X16.761
G2 X16.991 Y-2.407 I0 J-0.238
G1 X15.074 Y-9.56
G2 X14.635 Y-9.897 I-0.439 J0.118
G1 X6.895
G3 X5.62 Y-10.747 I0 J-1.381
G2 X4.345 Y-11.597 I-1.275 J0.531
G1 X-24.245
G2 X-24.564 Y-11.278 I0 J0.319
G1 Y-0.727
G2 X-24.245 Y-0.407 I0.319 J0
G1 X18.977
G2 X19.206 Y-0.707 I0 J-0.238
G1 X16.378 Y-11.26
G2 X15.939 Y-11.597 I-0.439 J0.118
G1 X4.345
G3 X3.07 Y-12.447 I0 J-1.381
G2 X1.795 Y-13.297 I-1.275 J0.531
G1 X-25.945
G2 X-26.264 Y-12.978 I0 J0.319
G1 Y0.973
G2 X-25.945 Y1.293 I0.319 J0
G1 X21.192
G2 X21.422 Y0.993 I0 J-0.238
G1 X17.683 Y-12.96
G2 X17.244 Y-13.297 I-0.439 J0.118
G1 X1.795
G3 X0.52 Y-14.147 I0 J-1.381
G2 X-0.755 Y-14.997 I-1.275 J0.531
G1 X-27.645
G2 X-27.964 Y-14.678 I0 J0.319
G1 Y2.673
G2 X-27.645 Y2.993 I0.319 J0
G1 X23.408
G2 X23.637 Y2.693 I0 J-0.238
G1 X18.987 Y-14.66
G2 X18.548 Y-14.997 I-0.439 J0.118
G1 X-0.755
G3 X-2.01 Y-15.835 I0 J-1.359
G2 X-3.266 Y-16.673 I-1.257 J0.523
G1 X-29.345 Y-16.697
G2 X-29.664 Y-16.378 I0 J0.319
G1 Y4.373
G2 X-29.345 Y4.693 I0.319 J0
G1 X25.623
G2 X25.853 Y4.393 I0 J-0.238
G1 X20.296 Y-16.171
G2 X19.668 Y-16.652 I-0.628 J0.168
G1 X-3.266 Y-16.673
G3 X-4.539 Y-17.524 I0.001 J-1.381
G2 X-5.813 Y-18.375 I-1.275 J0.53
G1 X-31.045 Y-18.397
G2 X-31.364 Y-18.078 I0 J0.319
G1 Y6.073
G2 X-31.045 Y6.393 I0.319 J0
G1 X27.838
G2 X28.068 Y6.093 I0 J-0.238
G1 X21.938 Y-16.611
G2 X19.668 Y-18.352 I-2.27 J0.608
G1 X-5.813 Y-18.375
G3 X-7.087 Y-19.226 I0.001 J-1.381
G2 X-8.36 Y-20.076 I-1.275 J0.53
G1 X-32.745 Y-20.097
G2 X-33.064 Y-19.778 I0 J0.319
G1 Y7.773
G2 X-32.745 Y8.093 I0.319 J0
G1 X30.054
G2 X30.284 Y7.793 I0 J-0.238
G1 X23.58 Y-17.051
G2 X19.668 Y-20.052 I-3.912 J1.048
G1 X-8.36 Y-20.076
G3 X-9.634 Y-20.927 I0.001 J-1.381
G2 X-10.908 Y-21.778 I-1.275 J0.53
G1 X-34.445 Y-21.797
G2 X-34.764 Y-21.478 I0 J0.319
G1 Y9.473
G2 X-34.445 Y9.793 I0.319 J0
G1 X32.269
G2 X32.499 Y9.493 I0 J-0.238
G1 X25.222 Y-17.491
G2 X19.668 Y-21.752 I-5.554 J1.488
G1 X-10.908 Y-21.778
G3 X-12.182 Y-22.628 I0.001 J-1.381
G2 X-13.455 Y-23.479 I-1.275 J0.53
G1 X-36.145 Y-23.497
G2 X-36.464 Y-23.178 I0 J0.319
G1 X-36.419 Y9.998
G2 X-34.969 Y11.448 I1.45 J0
G1 X34.485 Y11.493
G2 X34.715 Y11.193 I0 J-0.238
G1 X26.864 Y-17.931
G2 X19.668 Y-23.452 I-7.196 J1.928
G1 X-13.455 Y-23.479
G3 X-14.729 Y-24.33 I0.001 J-1.381
G2 X-16.003 Y-25.18 I-1.275 J0.53
G1 X-37.845 Y-25.197
G2 X-38.164 Y-24.878 I0 J0.319
G1 X-38.119 Y9.998
G2 X-34.969 Y13.148 I3.15 J0
G1 X36.7 Y13.193
G2 X36.93 Y12.893 I0 J-0.238
G1 X28.506 Y-18.371
G2 X19.668 Y-25.152 I-8.838 J2.368
G1 X-16.003 Y-25.18
G3 X-17.276 Y-26.031 I0.001 J-1.381
G2 X-18.55 Y-26.881 I-1.275 J0.53
G1 X-39.545 Y-26.897
G2 X-39.864 Y-26.578 I0 J0.319
G1 X-39.819 Y9.998
G2 X-34.969 Y14.848 I4.85 J0
G1 X38.916 Y14.893
G2 X39.146 Y14.593 I0 J-0.238
G1 X30.149 Y-18.811
G2 X19.668 Y-26.852 I-10.48 J2.808
G1 X-18.55 Y-26.881
G3 X-19.824 Y-27.732 I0.001 J-1.381
G2 X-21.098 Y-28.583 I-1.275 J0.53
G1 X-41.245 Y-28.597
G2 X-41.564 Y-28.278 I0 J0.319
G1 X-41.519 Y9.998
G2 X-34.969 Y16.548 I6.55 J0
G1 X41.131 Y16.593
G2 X41.361 Y16.293 I0 J-0.238
G1 X31.791 Y-19.251
G2 X19.668 Y-28.552 I-12.122 J3.248
G1 X-21.098 Y-28.583
G3 X-22.349 Y-29.417 I0.001 J-1.357
G2 X-23.601 Y-30.252 I-1.252 J0.521
G1 X-41.969
G2 X-43.219 Y-29.002 I0 J1.25
G1 Y9.998
G2 X-34.969 Y18.248 I8.25 J0
G1 X41.969
G2 X43.176 Y16.674 I0 J-1.25
G1 X33.433 Y-19.691
G2 X19.668 Y-30.252 I-13.764 J3.688
G1 X-23.601
G3 X-24.876 Y-31.102 I0 J-1.381
G2 X-26.151 Y-31.952 I-1.275 J0.531
G1 X-41.969
G2 X-44.919 Y-29.002 I0 J2.95
G1 Y9.998
G2 X-34.969 Y19.948 I9.95 J0
G1 X41.969
G2 X44.819 Y16.234 I0 J-2.95
G1 X35.075 Y-20.131
G2 X19.668 Y-31.952 I-15.407 J4.128
G1 X-26.151
G3 X-27.426 Y-32.802 I0 J-1.381
G2 X-28.701 Y-33.652 I-1.275 J0.531
G1 X-41.969
G2 X-46.619 Y-29.002 I0 J4.65
G1 Y9.998
G2 X-34.969 Y21.648 I11.65 J0
G1 X41.969
G2 X46.461 Y15.794 I0 J-4.65
G1 X36.717 Y-20.571
G2 X19.668 Y-33.652 I-17.049 J4.568
G1 X-28.701
G3 X-29.976 Y-34.502 I0 J-1.381
G2 X-31.251 Y-35.352 I-1.275 J0.531
G1 X-41.969
G2 X-48.319 Y-29.002 I0 J6.35
G1 Y9.998
G2 X-34.969 Y23.348 I13.35 J0
G1 X41.969
G2 X48.103 Y15.354 I0 J-6.35
G1 X38.359 Y-21.011
G2 X19.668 Y-35.352 I-18.691 J5.008
G1 X-31.251
G3 X-32.526 Y-36.202 I0 J-1.381
G2 X-33.801 Y-37.052 I-1.275 J0.531
G1 X-41.969
G2 X-50.019 Y-29.002 I0 J8.05
G1 Y9.998
G2 X-34.969 Y25.048 I15.05 J0
G1 X41.969
G2 X49.745 Y14.914 I0 J-8.05
G1 X40.001 Y-21.451
G2 X19.668 Y-37.052 I-20.333 J5.448
G1 X-33.801
G3 X-35.076 Y-37.902 I0 J-1.381
G2 X-36.351 Y-38.752 I-1.275 J0.531
G1 X-41.969
G2 X-51.719 Y-29.002 I0 J9.75
G1 Y9.998
G2 X-34.969 Y26.748 I16.75 J0
G1 X41.969
G2 X51.387 Y14.474 I0 J-9.75
G1 X41.643 Y-21.891
G2 X19.668 Y-38.752 I-21.975 J5.888
G1 X-36.351
G3 X-37.664 Y-39.627 I0 J-1.422
G2 X-38.976 Y-40.502 I-1.313 J0.547
G1 X-41.969
G2 X-53.469 Y-29.002 I0 J11.5
G1 Y9.998
G2 X-34.969 Y28.498 I18.5 J0
G1 X41.969
G2 X53.077 Y14.021 I0 J-11.5
G1 X43.333 Y-22.343
G2 X19.668 Y-40.502 I-23.665 J6.341
G1 X-38.976
X-39.033 Y-40.497 Z-3.518 F500
X-39.088 Y-40.481 Z-3.507
X-39.132 Y-40.459 Z-3.474
X-39.171 Y-40.43 Z-3.442
X-39.216 Y-40.383 Z-3.344
X-39.229 Y-40.364 Z-3.229
G0 Z5
X13.168 Y-4.263
G1 Z-0.355 F333.3
Z-0.73 F500
X13.189 Y-4.295 Z-0.877 F333.3
X13.244 Y-4.386 Z-0.986
X13.307 Y-4.517 Z-1.029
G2 X10.683 Y-5.628 Z-1.179 I-1.312 J-0.555
X13.307 Y-4.517 Z-1.329 I1.312 J0.555
X10.683 Y-5.628 Z-1.479 I-1.312 J-0.555
X13.307 Y-4.517 Z-1.629 I1.312 J0.555
X10.683 Y-5.628 Z-1.779 I-1.312 J-0.555
X13.307 Y-4.517 Z-1.929 I1.312 J0.555
X10.683 Y-5.628 Z-2.079 I-1.312 J-0.555
X13.307 Y-4.517 Z-2.229 I1.312 J0.555
X10.683 Y-5.628 Z-2.379 I-1.312 J-0.555
X13.307 Y-4.517 Z-2.529 I1.312 J0.555
X10.683 Y-5.628 Z-2.679 I-1.312 J-0.555
X13.307 Y-4.517 Z-2.829 I1.312 J0.555
X10.683 Y-5.628 Z-2.979 I-1.312 J-0.555
X13.307 Y-4.517 Z-3.129 I1.312 J0.555
X10.683 Y-5.628 Z-3.279 I-1.312 J-0.555
X13.307 Y-4.517 Z-3.429 I1.312 J0.555
X10.683 Y-5.628 Z-3.579 I-1.312 J-0.555
X13.307 Y-4.517 Z-3.729 I1.312 J0.555
X11.995 Y-6.497 Z-3.824 I-1.312 J-0.555
G1 X-19.145 F1000
G2 X-19.464 Y-6.178 I0 J0.319
G1 Y-5.827
G2 X-19.145 Y-5.507 I0.319 J0
G1 X12.33
G2 X12.56 Y-5.807 I0 J-0.238
G1 X12.465 Y-6.16
G2 X12.026 Y-6.497 I-0.439 J0.118
G1 X11.995
G3 X10.72 Y-7.347 I0 J-1.381
G2 X9.445 Y-8.197 I-1.275 J0.531
G1 X-20.845
G2 X-21.164 Y-7.878 I0 J0.319
G1 Y-4.127
G2 X-20.845 Y-3.807 I0.319 J0
G1 X14.546
G2 X14.775 Y-4.107 I0 J-0.238
G1 X13.77 Y-7.86
G2 X13.33 Y-8.197 I-0.439 J0.118
G1 X9.445
G3 X8.17 Y-9.047 I0 J-1.381
G2 X6.895 Y-9.897 I-1.275 J0.531
G1 X-22.545
G2 X-22.864 Y-9.578 I0 J0.319
G1 Y-2.427
G2 X-22.545 Y-2.107 I0.319 J0
G1 X16.761
G2 X16.991 Y-2.407 I0 J-0.238
G1 X15.074 Y-9.56
G2 X14.635 Y-9.897 I-0.439 J0.118
G1 X6.895
G3 X5.62 Y-10.747 I0 J-1.381
G2 X4.345 Y-11.597 I-1.275 J0.531
G1 X-24.245
G2 X-24.564 Y-11.278 I0 J0.319
G1 Y-0.727
G2 X-24.245 Y-0.407 I0.319 J0
G1 X18.977
G2 X19.206 Y-0.707 I0 J-0.238
G1 X16.378 Y-11.26
G2 X15.939 Y-11.597 I-0.439 J0.118
G1 X4.345
G3 X3.07 Y-12.447 I0 J-1.381
G2 X1.795 Y-13.297 I-1.275 J0.531
G1 X-25.945
G2 X-26.264 Y-12.978 I0 J0.319
G1 Y0.973
G2 X-25.945 Y1.293 I0.319 J0
G1 X21.192
G2 X21.422 Y0.993 I0 J-0.238
G1 X17.683 Y-12.96
G2 X17.244 Y-13.297 I-0.439 J0.118
G1 X1.795
G3 X0.52 Y-14.147 I0 J-1.381
G2 X-0.755 Y-14.997 I-1.275 J0.531
G1 X-27.645
G2 X-27.964 Y-14.678 I0 J0.319
G1 Y2.673
G2 X-27.645 Y2.993 I0.319 J0
G1 X23.408
G2 X23.637 Y2.693 I0 J-0.238
G1 X18.987 Y-14.66
G2 X18.548 Y-14.997 I-0.439 J0.118
G1 X-0.755
G3 X-2.01 Y-15.835 I0 J-1.359
G2 X-3.266 Y-16.673 I-1.257 J0.523
G1 X-29.345 Y-16.697
G2 X-29.664 Y-16.378 I0 J0.319
G1 Y4.373
G2 X-29.345 Y4.693 I0.319 J0
G1 X25.623
G2 X25.853 Y4.393 I0 J-0.238
G1 X20.296 Y-16.171
G2 X19.668 Y-16.652 I-0.628 J0.168
G1 X-3.266 Y-16.673
G3 X-4.539 Y-17.524 I0.001 J-1.381
G2 X-5.813 Y-18.375 I-1.275 J0.53
G1 X-31.045 Y-18.397
G2 X-31.364 Y-18.078 I0 J0.319
G1 Y6.073
G2 X-31.045 Y6.393 I0.319 J0
G1 X27.838
G2 X28.068 Y6.093 I0 J-0.238
G1 X21.938 Y-16.611
G2 X19.668 Y-18.352 I-2.27 J0.608
G1 X-5.813 Y-18.375
G3 X-7.087 Y-19.226 I0.001 J-1.381
G2 X-8.36 Y-20.076 I-1.275 J0.53
G1 X-32.745 Y-20.097
G2 X-33.064 Y-19.778 I0 J0.319
G1 Y7.773
G2 X-32.745 Y8.093 I0.319 J0
G1 X30.054
G2 X30.284 Y7.793 I0 J-0.238
G1 X23.58 Y-17.051
G2 X19.668 Y-20.052 I-3.912 J1.048
G1 X-8.36 Y-20.076
G3 X-9.634 Y-20.927 I0.001 J-1.381
G2 X-10.908 Y-21.778 I-1.275 J0.53
G1 X-34.445 Y-21.797
G2 X-34.764 Y-21.478 I0 J0.319
G1 Y9.473
G2 X-34.445 Y9.793 I0.319 J0
G1 X32.269
G2 X32.499 Y9.493 I0 J-0.238
G1 X25.222 Y-17.491
G2 X19.668 Y-21.752 I-5.554 J1.488
G1 X-10.908 Y-21.778
G3 X-12.182 Y-22.628 I0.001 J-1.381
G2 X-13.455 Y-23.479 I-1.275 J0.53
G1 X-36.145 Y-23.497
G2 X-36.464 Y-23.178 I0 J0.319
G1 X-36.419 Y9.998
G2 X-34.969 Y11.448 I1.45 J0
G1 X34.485 Y11.493
G2 X34.715 Y11.193 I0 J-0.238
G1 X26.864 Y-17.931
G2 X19.668 Y-23.452 I-7.196 J1.928
G1 X-13.455 Y-23.479
G3 X-14.729 Y-24.33 I0.001 J-1.381
G2 X-16.003 Y-25.18 I-1.275 J0.53
G1 X-37.845 Y-25.197
G2 X-38.164 Y-24.878 I0 J0.319
G1 X-38.119 Y9.998
G2 X-34.969 Y13.148 I3.15 J0
G1 X36.7 Y13.193
G2 X36.93 Y12.893 I0 J-0.238
G1 X28.506 Y-18.371
G2 X19.668 Y-25.152 I-8.838 J2.368
G1 X-16.003 Y-25.18
G3 X-17.276 Y-26.031 I0.001 J-1.381
G2 X-18.55 Y-26.881 I-1.275 J0.53
G1 X-39.545 Y-26.897
G2 X-39.864 Y-26.578 I0 J0.319
G1 X-39.819 Y9.998
G2 X-34.969 Y14.848 I4.85 J0
G1 X38.916 Y14.893
G2 X39.146 Y14.593 I0 J-0.238
G1 X30.149 Y-18.811
G2 X19.668 Y-26.852 I-10.48 J2.808
G1 X-18.55 Y-26.881
G3 X-19.824 Y-27.732 I0.001 J-1.381
G2 X-21.098 Y-28.583 I-1.275 J0.53
G1 X-41.245 Y-28.597
G2 X-41.564 Y-28.278 I0 J0.319
G1 X-41.519 Y9.998
G2 X-34.969 Y16.548 I6.55 J0
G1 X41.131 Y16.593
G2 X41.361 Y16.293 I0 J-0.238
G1 X31.791 Y-19.251
G2 X19.668 Y-28.552 I-12.122 J3.248
G1 X-21.098 Y-28.583
G3 X-22.349 Y-29.417 I0.001 J-1.357
G2 X-23.601 Y-30.252 I-1.252 J0.521
G1 X-41.969
G2 X-43.219 Y-29.002 I0 J1.25
G1 Y9.998
G2 X-34.969 Y18.248 I8.25 J0
G1 X41.969
G2 X43.176 Y16.674 I0 J-1.25
G1 X33.433 Y-19.691
G2 X19.668 Y-30.252 I-13.764 J3.688
G1 X-23.601
G3 X-24.876 Y-31.102 I0 J-1.381
G2 X-26.151 Y-31.952 I-1.275 J0.531
G1 X-41.969
G2 X-44.919 Y-29.002 I0 J2.95
G1 Y9.998
G2 X-34.969 Y19.948 I9.95 J0
G1 X41.969
G2 X44.819 Y16.234 I0 J-2.95
G1 X35.075 Y-20.131
G2 X19.668 Y-31.952 I-15.407 J4.128
G1 X-26.151
G3 X-27.426 Y-32.802 I0 J-1.381
G2 X-28.701 Y-33.652 I-1.275 J0.531
G1 X-41.969
G2 X-46.619 Y-29.002 I0 J4.65
G1 Y9.998
G2 X-34.969 Y21.648 I11.65 J0
G1 X41.969
G2 X46.461 Y15.794 I0 J-4.65
G1 X36.717 Y-20.571
G2 X19.668 Y-33.652 I-17.049 J4.568
G1 X-28.701
G3 X-29.976 Y-34.502 I0 J-1.381
G2 X-31.251 Y-35.352 I-1.275 J0.531
G1 X-41.969
G2 X-48.319 Y-29.002 I0 J6.35
G1 Y9.998
G2 X-34.969 Y23.348 I13.35 J0
G1 X41.969
G2 X48.103 Y15.354 I0 J-6.35
G1 X38.359 Y-21.011
G2 X19.668 Y-35.352 I-18.691 J5.008
G1 X-31.251
G3 X-32.526 Y-36.202 I0 J-1.381
G2 X-33.801 Y-37.052 I-1.275 J0.531
G1 X-41.969
G2 X-50.019 Y-29.002 I0 J8.05
G1 Y9.998
G2 X-34.969 Y25.048 I15.05 J0
G1 X41.969
G2 X49.745 Y14.914 I0 J-8.05
G1 X40.001 Y-21.451
G2 X19.668 Y-37.052 I-20.333 J5.448
G1 X-33.801
G3 X-35.076 Y-37.902 I0 J-1.381
G2 X-36.351 Y-38.752 I-1.275 J0.531
G1 X-41.969
G2 X-51.719 Y-29.002 I0 J9.75
G1 Y9.998
G2 X-34.969 Y26.748 I16.75 J0
G1 X41.969
G2 X51.387 Y14.474 I0 J-9.75
G1 X41.643 Y-21.891
G2 X19.668 Y-38.752 I-21.975 J5.888
G1 X-36.351
G3 X-37.664 Y-39.627 I0 J-1.422
G2 X-38.976 Y-40.502 I-1.313 J0.547
G1 X-41.969
G2 X-53.469 Y-29.002 I0 J11.5
G1 Y9.998
G2 X-34.969 Y28.498 I18.5 J0
G1 X41.969
G2 X53.077 Y14.021 I0 J-11.5
G1 X43.333 Y-22.343
G2 X19.668 Y-40.502 I-23.665 J6.341
G1 X-38.976
X-39.033 Y-40.497 Z-3.812 F500
X-39.088 Y-40.481 Z-3.801
X-39.132 Y-40.459 Z-3.768
X-39.171 Y-40.43 Z-3.736
X-39.216 Y-40.383 Z-3.638
X-39.229 Y-40.364 Z-3.524
G0 Z5
X13.168 Y-4.263
G1 Z-0.649 F333.3
Z-1.024 F500
X13.189 Y-4.295 Z-1.171 F333.3
X13.244 Y-4.386 Z-1.28
X13.307 Y-4.517 Z-1.324
G2 X10.683 Y-5.628 Z-1.474 I-1.312 J-0.555
X13.307 Y-4.517 Z-1.624 I1.312 J0.555
X10.683 Y-5.628 Z-1.774 I-1.312 J-0.555
X13.307 Y-4.517 Z-1.924 I1.312 J0.555
X10.683 Y-5.628 Z-2.074 I-1.312 J-0.555
X13.307 Y-4.517 Z-2.224 I1.312 J0.555
X10.683 Y-5.628 Z-2.374 I-1.312 J-0.555
X13.307 Y-4.517 Z-2.524 I1.312 J0.555
X10.683 Y-5.628 Z-2.674 I-1.312 J-0.555
X13.307 Y-4.517 Z-2.824 I1.312 J0.555
X10.683 Y-5.628 Z-2.974 I-1.312 J-0.555
X13.307 Y-4.517 Z-3.124 I1.312 J0.555
X10.683 Y-5.628 Z-3.274 I-1.312 J-0.555
X13.307 Y-4.517 Z-3.424 I1.312 J0.555
X10.683 Y-5.628 Z-3.574 I-1.312 J-0.555
X13.307 Y-4.517 Z-3.724 I1.312 J0.555
X10.683 Y-5.628 Z-3.874 I-1.312 J-0.555
X13.307 Y-4.517 Z-4.024 I1.312 J0.555
X11.995 Y-6.497 Z-4.118 I-1.312 J-0.555
G1 X-19.145 F1000
G2 X-19.464 Y-6.178 I0 J0.319
G1 Y-5.827
G2 X-19.145 Y-5.507 I0.319 J0
G1 X12.33
G2 X12.56 Y-5.807 I0 J-0.238
G1 X12.465 Y-6.16
G2 X12.026 Y-6.497 I-0.439 J0.118
G1 X11.995
G3 X10.72 Y-7.347 I0 J-1.381
G2 X9.445 Y-8.197 I-1.275 J0.531
G1 X-20.845
G2 X-21.164 Y-7.878 I0 J0.319
G1 Y-4.127
G2 X-20.845 Y-3.807 I0.319 J0
G1 X14.546
G2 X14.775 Y-4.107 I0 J-0.238
G1 X13.77 Y-7.86
G2 X13.33 Y-8.197 I-0.439 J0.118
G1 X9.445
G3 X8.17 Y-9.047 I0 J-1.381
G2 X6.895 Y-9.897 I-1.275 J0.531
G1 X-22.545
G2 X-22.864 Y-9.578 I0 J0.319
G1 Y-2.427
G2 X-22.545 Y-2.107 I0.319 J0
G1 X16.761
G2 X16.991 Y-2.407 I0 J-0.238
G1 X15.074 Y-9.56
G2 X14.635 Y-9.897 I-0.439 J0.118
G1 X6.895
G3 X5.62 Y-10.747 I0 J-1.381
G2 X4.345 Y-11.597 I-1.275 J0.531
G1 X-24.245
G2 X-24.564 Y-11.278 I0 J0.319
G1 Y-0.727
G2 X-24.245 Y-0.407 I0.319 J0
G1 X18.977
G2 X19.206 Y-0.707 I0 J-0.238
G1 X16.378 Y-11.26
G2 X15.939 Y-11.597 I-0.439 J0.118
G1 X4.345
G3 X3.07 Y-12.447 I0 J-1.381
G2 X1.795 Y-13.297 I-1.275 J0.531
G1 X-25.945
G2 X-26.264 Y-12.978 I0 J0.319
G1 Y0.973
G2 X-25.945 Y1.293 I0.319 J0
G1 X21.192
G2 X21.422 Y0.993 I0 J-0.238
G1 X17.683 Y-12.96
G2 X17.244 Y-13.297 I-0.439 J0.118
G1 X1.795
G3 X0.52 Y-14.147 I0 J-1.381
G2 X-0.755 Y-14.997 I-1.275 J0.531
G1 X-27.645
G2 X-27.964 Y-14.678 I0 J0.319
G1 Y2.673
G2 X-27.645 Y2.993 I0.319 J0
G1 X23.408
G2 X23.637 Y2.693 I0 J-0.238
G1 X18.987 Y-14.66
G2 X18.548 Y-14.997 I-0.439 J0.118
G1 X-0.755
G3 X-2.01 Y-15.835 I0 J-1.359
G2 X-3.266 Y-16.673 I-1.257 J0.523
G1 X-29.345 Y-16.697
G2 X-29.664 Y-16.378 I0 J0.319
G1 Y4.373
G2 X-29.345 Y4.693 I0.319 J0
G1 X25.623
G2 X25.853 Y4.393 I0 J-0.238
G1 X20.296 Y-16.171
G2 X19.668 Y-16.652 I-0.628 J0.168
G1 X-3.266 Y-16.673
G3 X-4.539 Y-17.524 I0.001 J-1.381
G2 X-5.813 Y-18.375 I-1.275 J0.53
G1 X-31.045 Y-18.397
G2 X-31.364 Y-18.078 I0 J0.319
G1 Y6.073
G2 X-31.045 Y6.393 I0.319 J0
G1 X27.838
G2 X28.068 Y6.093 I0 J-0.238
G1 X21.938 Y-16.611
G2 X19.668 Y-18.352 I-2.27 J0.608
G1 X-5.813 Y-18.375
G3 X-7.087 Y-19.226 I0.001 J-1.381
G2 X-8.36 Y-20.076 I-1.275 J0.53
G1 X-32.745 Y-20.097
G2 X-33.064 Y-19.778 I0 J0.319
G1 Y7.773
G2 X-32.745 Y8.093 I0.319 J0
G1 X30.054
G2 X30.284 Y7.793 I0 J-0.238
G1 X23.58 Y-17.051
G2 X19.668 Y-20.052 I-3.912 J1.048
G1 X-8.36 Y-20.076
G3 X-9.634 Y-20.927 I0.001 J-1.381
G2 X-10.908 Y-21.778 I-1.275 J0.53
G1 X-34.445 Y-21.797
G2 X-34.764 Y-21.478 I0 J0.319
G1 Y9.473
G2 X-34.445 Y9.793 I0.319 J0
G1 X32.269
G2 X32.499 Y9.493 I0 J-0.238
G1 X25.222 Y-17.491
G2 X19.668 Y-21.752 I-5.554 J1.488
G1 X-10.908 Y-21.778
G3 X-12.182 Y-22.628 I0.001 J-1.381
G2 X-13.455 Y-23.479 I-1.275 J0.53
G1 X-36.145 Y-23.497
G2 X-36.464 Y-23.178 I0 J0.319
G1 X-36.419 Y9.998
G2 X-34.969 Y11.448 I1.45 J0
G1 X34.485 Y11.493
G2 X34.715 Y11.193 I0 J-0.238
G1 X26.864 Y-17.931
G2 X19.668 Y-23.452 I-7.196 J1.928
G1 X-13.455 Y-23.479
G3 X-14.729 Y-24.33 I0.001 J-1.381
G2 X-16.003 Y-25.18 I-1.275 J0.53
G1 X-37.845 Y-25.197
G2 X-38.164 Y-24.878 I0 J0.319
G1 X-38.119 Y9.998
G2 X-34.969 Y13.148 I3.15 J0
G1 X36.7 Y13.193
G2 X36.93 Y12.893 I0 J-0.238
G1 X28.506 Y-18.371
G2 X19.668 Y-25.152 I-8.838 J2.368
G1 X-16.003 Y-25.18
G3 X-17.276 Y-26.031 I0.001 J-1.381
G2 X-18.55 Y-26.881 I-1.275 J0.53
G1 X-39.545 Y-26.897
G2 X-39.864 Y-26.578 I0 J0.319
G1 X-39.819 Y9.998
G2 X-34.969 Y14.848 I4.85 J0
G1 X38.916 Y14.893
G2 X39.146 Y14.593 I0 J-0.238
G1 X30.149 Y-18.811
G2 X19.668 Y-26.852 I-10.48 J2.808
G1 X-18.55 Y-26.881
G3 X-19.824 Y-27.732 I0.001 J-1.381
G2 X-21.098 Y-28.583 I-1.275 J0.53
G1 X-41.245 Y-28.597
G2 X-41.564 Y-28.278 I0 J0.319
G1 X-41.519 Y9.998
G2 X-34.969 Y16.548 I6.55 J0
G1 X41.131 Y16.593
G2 X41.361 Y16.293 I0 J-0.238
G1 X31.791 Y-19.251
G2 X19.668 Y-28.552 I-12.122 J3.248
G1 X-21.098 Y-28.583
G3 X-22.349 Y-29.417 I0.001 J-1.357
G2 X-23.601 Y-30.252 I-1.252 J0.521
G1 X-41.969
G2 X-43.219 Y-29.002 I0 J1.25
G1 Y9.998
G2 X-34.969 Y18.248 I8.25 J0
G1 X41.969
G2 X43.176 Y16.674 I0 J-1.25
G1 X33.433 Y-19.691
G2 X19.668 Y-30.252 I-13.764 J3.688
G1 X-23.601
G3 X-24.876 Y-31.102 I0 J-1.381
G2 X-26.151 Y-31.952 I-1.275 J0.531
G1 X-41.969
G2 X-44.919 Y-29.002 I0 J2.95
G1 Y9.998
G2 X-34.969 Y19.948 I9.95 J0
G1 X41.969
G2 X44.819 Y16.234 I0 J-2.95
G1 X35.075 Y-20.131
G2 X19.668 Y-31.952 I-15.407 J4.128
G1 X-26.151
G3 X-27.426 Y-32.802 I0 J-1.381
G2 X-28.701 Y-33.652 I-1.275 J0.531
G1 X-41.969
G2 X-46.619 Y-29.002 I0 J4.65
G1 Y9.998
G2 X-34.969 Y21.648 I11.65 J0
G1 X41.969
G2 X46.461 Y15.794 I0 J-4.65
G1 X36.717 Y-20.571
G2 X19.668 Y-33.652 I-17.049 J4.568
G1 X-28.701
G3 X-29.976 Y-34.502 I0 J-1.381
G2 X-31.251 Y-35.352 I-1.275 J0.531
G1 X-41.969
G2 X-48.319 Y-29.002 I0 J6.35
G1 Y9.998
G2 X-34.969 Y23.348 I13.35 J0
G1 X41.969
G2 X48.103 Y15.354 I0 J-6.35
G1 X38.359 Y-21.011
G2 X19.668 Y-35.352 I-18.691 J5.008
G1 X-31.251
G3 X-32.526 Y-36.202 I0 J-1.381
G2 X-33.801 Y-37.052 I-1.275 J0.531
G1 X-41.969
G2 X-50.019 Y-29.002 I0 J8.05
G1 Y9.998
G2 X-34.969 Y25.048 I15.05 J0
G1 X41.969
G2 X49.745 Y14.914 I0 J-8.05
G1 X40.001 Y-21.451
G2 X19.668 Y-37.052 I-20.333 J5.448
G1 X-33.801
G3 X-35.076 Y-37.902 I0 J-1.381
G2 X-36.351 Y-38.752 I-1.275 J0.531
G1 X-41.969
G2 X-51.719 Y-29.002 I0 J9.75
G1 Y9.998
G2 X-34.969 Y26.748 I16.75 J0
G1 X41.969
G2 X51.387 Y14.474 I0 J-9.75
G1 X41.643 Y-21.891
G2 X19.668 Y-38.752 I-21.975 J5.888
G1 X-36.351
G3 X-37.664 Y-39.627 I0 J-1.422
G2 X-38.976 Y-40.502 I-1.313 J0.547
G1 X-41.969
G2 X-53.469 Y-29.002 I0 J11.5
G1 Y9.998
G2 X-34.969 Y28.498 I18.5 J0
G1 X41.969
G2 X53.077 Y14.021 I0 J-11.5
G1 X43.333 Y-22.343
G2 X19.668 Y-40.502 I-23.665 J6.341
G1 X-38.976
X-39.033 Y-40.497 Z-4.106 F500
X-39.088 Y-40.481 Z-4.095
X-39.132 Y-40.459 Z-4.062
X-39.171 Y-40.43 Z-4.03
X-39.216 Y-40.383 Z-3.932
X-39.229 Y-40.364 Z-3.818
G0 Z5
X13.168 Y-4.263
G1 Z-0.943 F333.3
Z-1.318 F500
X13.189 Y-4.295 Z-1.465 F333.3
X13.244 Y-4.386 Z-1.574
X13.307 Y-4.517 Z-1.618
G2 X10.683 Y-5.628 Z-1.768 I-1.312 J-0.555
X13.307 Y-4.517 Z-1.918 I1.312 J0.555
X10.683 Y-5.628 Z-2.068 I-1.312 J-0.555
X13.307 Y-4.517 Z-2.218 I1.312 J0.555
X10.683 Y-5.628 Z-2.368 I-1.312 J-0.555
X13.307 Y-4.517 Z-2.518 I1.312 J0.555
X10.683 Y-5.628 Z-2.668 I-1.312 J-0.555
X13.307 Y-4.517 Z-2.818 I1.312 J0.555
X10.683 Y-5.628 Z-2.968 I-1.312 J-0.555
X13.307 Y-4.517 Z-3.118 I1.312 J0.555
X10.683 Y-5.628 Z-3.268 I-1.312 J-0.555
X13.307 Y-4.517 Z-3.418 I1.312 J0.555
X10.683 Y-5.628 Z-3.568 I-1.312 J-0.555
X13.307 Y-4.517 Z-3.718 I1.312 J0.555
X10.683 Y-5.628 Z-3.868 I-1.312 J-0.555
X13.307 Y-4.517 Z-4.018 I1.312 J0.555
X10.683 Y-5.628 Z-4.168 I-1.312 J-0.555
X13.307 Y-4.517 Z-4.318 I1.312 J0.555
X11.995 Y-6.497 Z-4.412 I-1.312 J-0.555
G1 X-19.145 F1000
G2 X-19.464 Y-6.178 I0 J0.319
G1 Y-5.827
G2 X-19.145 Y-5.507 I0.319 J0
G1 X12.33
G2 X12.56 Y-5.807 I0 J-0.238
G1 X12.465 Y-6.16
G2 X12.026 Y-6.497 I-0.439 J0.118
G1 X11.995
G3 X10.72 Y-7.347 I0 J-1.381
G2 X9.445 Y-8.197 I-1.275 J0.531
G1 X-20.845
G2 X-21.164 Y-7.878 I0 J0.319
G1 Y-4.127
G2 X-20.845 Y-3.807 I0.319 J0
G1 X14.546
G2 X14.775 Y-4.107 I0 J-0.238
G1 X13.77 Y-7.86
G2 X13.33 Y-8.197 I-0.439 J0.118
G1 X9.445
G3 X8.17 Y-9.047 I0 J-1.381
G2 X6.895 Y-9.897 I-1.275 J0.531
G1 X-22.545
G2 X-22.864 Y-9.578 I0 J0.319
G1 Y-2.427
G2 X-22.545 Y-2.107 I0.319 J0
G1 X16.761
G2 X16.991 Y-2.407 I0 J-0.238
G1 X15.074 Y-9.56
G2 X14.635 Y-9.897 I-0.439 J0.118
G1 X6.895
G3 X5.62 Y-10.747 I0 J-1.381
G2 X4.345 Y-11.597 I-1.275 J0.531
G1 X-24.245
G2 X-24.564 Y-11.278 I0 J0.319
G1 Y-0.727
G2 X-24.245 Y-0.407 I0.319 J0
G1 X18.977
G2 X19.206 Y-0.707 I0 J-0.238
G1 X16.378 Y-11.26
G2 X15.939 Y-11.597 I-0.439 J0.118
G1 X4.345
G3 X3.07 Y-12.447 I0 J-1.381
G2 X1.795 Y-13.297 I-1.275 J0.531
G1 X-25.945
G2 X-26.264 Y-12.978 I0 J0.319
G1 Y0.973
G2 X-25.945 Y1.293 I0.319 J0
G1 X21.192
G2 X21.422 Y0.993 I0 J-0.238
G1 X17.683 Y-12.96
G2 X17.244 Y-13.297 I-0.439 J0.118
G1 X1.795
G3 X0.52 Y-14.147 I0 J-1.381
G2 X-0.755 Y-14.997 I-1.275 J0.531
G1 X-27.645
G2 X-27.964 Y-14.678 I0 J0.319
G1 Y2.673
G2 X-27.645 Y2.993 I0.319 J0
G1 X23.408
G2 X23.637 Y2.693 I0 J-0.238
G1 X18.987 Y-14.66
G2 X18.548 Y-14.997 I-0.439 J0.118
G1 X-0.755
G3 X-2.01 Y-15.835 I0 J-1.359
G2 X-3.266 Y-16.673 I-1.257 J0.523
G1 X-29.345 Y-16.697
G2 X-29.664 Y-16.378 I0 J0.319
G1 Y4.373
G2 X-29.345 Y4.693 I0.319 J0
G1 X25.623
G2 X25.853 Y4.393 I0 J-0.238
G1 X20.296 Y-16.171
G2 X19.668 Y-16.652 I-0.628 J0.168
G1 X-3.266 Y-16.673
G3 X-4.539 Y-17.524 I0.001 J-1.381
G2 X-5.813 Y-18.375 I-1.275 J0.53
G1 X-31.045 Y-18.397
G2 X-31.364 Y-18.078 I0 J0.319
G1 Y6.073
G2 X-31.045 Y6.393 I0.319 J0
G1 X27.838
G2 X28.068 Y6.093 I0 J-0.238
G1 X21.938 Y-16.611
G2 X19.668 Y-18.352 I-2.27 J0.608
G1 X-5.813 Y-18.375
G3 X-7.087 Y-19.226 I0.001 J-1.381
G2 X-8.36 Y-20.076 I-1.275 J0.53
G1 X-32.745 Y-20.097
G2 X-33.064 Y-19.778 I0 J0.319
G1 Y7.773
G2 X-32.745 Y8.093 I0.319 J0
G1 X30.054
G2 X30.284 Y7.793 I0 J-0.238
G1 X23.58 Y-17.051
G2 X19.668 Y-20.052 I-3.912 J1.048
G1 X-8.36 Y-20.076
G3 X-9.634 Y-20.927 I0.001 J-1.381
G2 X-10.908 Y-21.778 I-1.275 J0.53
G1 X-34.445 Y-21.797
G2 X-34.764 Y-21.478 I0 J0.319
G1 Y9.473
G2 X-34.445 Y9.793 I0.319 J0
G1 X32.269
G2 X32.499 Y9.493 I0 J-0.238
G1 X25.222 Y-17.491
G2 X19.668 Y-21.752 I-5.554 J1.488
G1 X-10.908 Y-21.778
G3 X-12.182 Y-22.628 I0.001 J-1.381
G2 X-13.455 Y-23.479 I-1.275 J0.53
G1 X-36.145 Y-23.497
G2 X-36.464 Y-23.178 I0 J0.319
G1 X-36.419 Y9.998
G2 X-34.969 Y11.448 I1.45 J0
G1 X34.485 Y11.493
G2 X34.715 Y11.193 I0 J-0.238
G1 X26.864 Y-17.931
G2 X19.668 Y-23.452 I-7.196 J1.928
G1 X-13.455 Y-23.479
G3 X-14.729 Y-24.33 I0.001 J-1.381
G2 X-16.003 Y-25.18 I-1.275 J0.53
G1 X-37.845 Y-25.197
G2 X-38.164 Y-24.878 I0 J0.319
G1 X-38.119 Y9.998
G2 X-34.969 Y13.148 I3.15 J0
G1 X36.7 Y13.193
G2 X36.93 Y12.893 I0 J-0.238
G1 X28.506 Y-18.371
G2 X19.668 Y-25.152 I-8.838 J2.368
G1 X-16.003 Y-25.18
G3 X-17.276 Y-26.031 I0.001 J-1.381
G2 X-18.55 Y-26.881 I-1.275 J0.53
G1 X-39.545 Y-26.897
G2 X-39.864 Y-26.578 I0 J0.319
G1 X-39.819 Y9.998
G2 X-34.969 Y14.848 I4.85 J0
G1 X38.916 Y14.893
G2 X39.146 Y14.593 I0 J-0.238
G1 X30.149 Y-18.811
G2 X19.668 Y-26.852 I-10.48 J2.808
G1 X-18.55 Y-26.881
G3 X-19.824 Y-27.732 I0.001 J-1.381
G2 X-21.098 Y-28.583 I-1.275 J0.53
G1 X-41.245 Y-28.597
G2 X-41.564 Y-28.278 I0 J0.319
G1 X-41.519 Y9.998
G2 X-34.969 Y16.548 I6.55 J0
G1 X41.131 Y16.593
G2 X41.361 Y16.293 I0 J-0.238
G1 X31.791 Y-19.251
G2 X19.668 Y-28.552 I-12.122 J3.248
G1 X-21.098 Y-28.583
G3 X-22.349 Y-29.417 I0.001 J-1.357
G2 X-23.601 Y-30.252 I-1.252 J0.521
G1 X-41.969
G2 X-43.219 Y-29.002 I0 J1.25
G1 Y9.998
G2 X-34.969 Y18.248 I8.25 J0
G1 X41.969
G2 X43.176 Y16.674 I0 J-1.25
G1 X33.433 Y-19.691
G2 X19.668 Y-30.252 I-13.764 J3.688
G1 X-23.601
G3 X-24.876 Y-31.102 I0 J-1.381
G2 X-26.151 Y-31.952 I-1.275 J0.531
G1 X-41.969
G2 X-44.919 Y-29.002 I0 J2.95
G1 Y9.998
G2 X-34.969 Y19.948 I9.95 J0
G1 X41.969
G2 X44.819 Y16.234 I0 J-2.95
G1 X35.075 Y-20.131
G2 X19.668 Y-31.952 I-15.407 J4.128
G1 X-26.151
G3 X-27.426 Y-32.802 I0 J-1.381
G2 X-28.701 Y-33.652 I-1.275 J0.531
G1 X-41.969
G2 X-46.619 Y-29.002 I0 J4.65
G1 Y9.998
G2 X-34.969 Y21.648 I11.65 J0
G1 X41.969
G2 X46.461 Y15.794 I0 J-4.65
G1 X36.717 Y-20.571
G2 X19.668 Y-33.652 I-17.049 J4.568
G1 X-28.701
G3 X-29.976 Y-34.502 I0 J-1.381
G2 X-31.251 Y-35.352 I-1.275 J0.531
G1 X-41.969
G2 X-48.319 Y-29.002 I0 J6.35
G1 Y9.998
G2 X-34.969 Y23.348 I13.35 J0
G1 X41.969
G2 X48.103 Y15.354 I0 J-6.35
G1 X38.359 Y-21.011
G2 X19.668 Y-35.352 I-18.691 J5.008
G1 X-31.251
G3 X-32.526 Y-36.202 I0 J-1.381
G2 X-33.801 Y-37.052 I-1.275 J0.531
G1 X-41.969
G2 X-50.019 Y-29.002 I0 J8.05
G1 Y9.998
G2 X-34.969 Y25.048 I15.05 J0
G1 X41.969
G2 X49.745 Y14.914 I0 J-8.05
G1 X40.001 Y-21.451
G2 X19.668 Y-37.052 I-20.333 J5.448
G1 X-33.801
G3 X-35.076 Y-37.902 I0 J-1.381
G2 X-36.351 Y-38.752 I-1.275 J0.531
G1 X-41.969
G2 X-51.719 Y-29.002 I0 J9.75
G1 Y9.998
G2 X-34.969 Y26.748 I16.75 J0
G1 X41.969
G2 X51.387 Y14.474 I0 J-9.75
G1 X41.643 Y-21.891
G2 X19.668 Y-38.752 I-21.975 J5.888
G1 X-36.351
G3 X-37.664 Y-39.627 I0 J-1.422
G2 X-38.976 Y-40.502 I-1.313 J0.547
G1 X-41.969
G2 X-53.469 Y-29.002 I0 J11.5
G1 Y9.998
G2 X-34.969 Y28.498 I18.5 J0
G1 X41.969
G2 X53.077 Y14.021 I0 J-11.5
G1 X43.333 Y-22.343
G2 X19.668 Y-40.502 I-23.665 J6.341
G1 X-38.976
X-39.033 Y-40.497 Z-4.4 F500
X-39.088 Y-40.481 Z-4.389
X-39.132 Y-40.459 Z-4.356
X-39.171 Y-40.43 Z-4.324
X-39.216 Y-40.383 Z-4.227
X-39.229 Y-40.364 Z-4.112
G0 Z5
X13.168 Y-4.263
G1 Z-1.237 F333.3
Z-1.612 F500
X13.189 Y-4.295 Z-1.759 F333.3
X13.244 Y-4.386 Z-1.868
X13.307 Y-4.517 Z-1.912
G2 X10.683 Y-5.628 Z-2.062 I-1.312 J-0.555
X13.307 Y-4.517 Z-2.212 I1.312 J0.555
X10.683 Y-5.628 Z-2.362 I-1.312 J-0.555
X13.307 Y-4.517 Z-2.512 I1.312 J0.555
X10.683 Y-5.628 Z-2.662 I-1.312 J-0.555
X13.307 Y-4.517 Z-2.812 I1.312 J0.555
X10.683 Y-5.628 Z-2.962 I-1.312 J-0.555
X13.307 Y-4.517 Z-3.112 I1.312 J0.555
X10.683 Y-5.628 Z-3.262 I-1.312 J-0.555
X13.307 Y-4.517 Z-3.412 I1.312 J0.555
X10.683 Y-5.628 Z-3.562 I-1.312 J-0.555
X13.307 Y-4.517 Z-3.712 I1.312 J0.555
X10.683 Y-5.628 Z-3.862 I-1.312 J-0.555
X13.307 Y-4.517 Z-4.012 I1.312 J0.555
X10.683 Y-5.628 Z-4.162 I-1.312 J-0.555
X13.307 Y-4.517 Z-4.312 I1.312 J0.555
X10.683 Y-5.628 Z-4.462 I-1.312 J-0.555
X13.307 Y-4.517 Z-4.612 I1.312 J0.555
X11.995 Y-6.497 Z-4.706 I-1.312 J-0.555
G1 X-19.145 F1000
G2 X-19.464 Y-6.178 I0 J0.319
G1 Y-5.827
G2 X-19.145 Y-5.507 I0.319 J0
G1 X12.33
G2 X12.56 Y-5.807 I0 J-0.238
G1 X12.465 Y-6.16
G2 X12.026 Y-6.497 I-0.439 J0.118
G1 X11.995
G3 X10.72 Y-7.347 I0 J-1.381
G2 X9.445 Y-8.197 I-1.275 J0.531
G1 X-20.845
G2 X-21.164 Y-7.878 I0 J0.319
G1 Y-4.127
G2 X-20.845 Y-3.807 I0.319 J0
G1 X14.546
G2 X14.775 Y-4.107 I0 J-0.238
G1 X13.77 Y-7.86
G2 X13.33 Y-8.197 I-0.439 J0.118
G1 X9.445
G3 X8.17 Y-9.047 I0 J-1.381
G2 X6.895 Y-9.897 I-1.275 J0.531
G1 X-22.545
G2 X-22.864 Y-9.578 I0 J0.319
G1 Y-2.427
G2 X-22.545 Y-2.107 I0.319 J0
G1 X16.761
G2 X16.991 Y-2.407 I0 J-0.238
G1 X15.074 Y-9.56
G2 X14.635 Y-9.897 I-0.439 J0.118
G1 X6.895
G3 X5.62 Y-10.747 I0 J-1.381
G2 X4.345 Y-11.597 I-1.275 J0.531
G1 X-24.245
G2 X-24.564 Y-11.278 I0 J0.319
G1 Y-0.727
G2 X-24.245 Y-0.407 I0.319 J0
G1 X18.977
G2 X19.206 Y-0.707 I0 J-0.238
G1 X16.378 Y-11.26
G2 X15.939 Y-11.597 I-0.439 J0.118
G1 X4.345
